; generated by PrusaSlicer 2.7.4 on 2025-04-03 at 16:37:34 UTC

; 

; external perimeters extrusion width = 0.28mm
; perimeters extrusion width = 0.28mm
; infill extrusion width = 0.28mm
; solid infill extrusion width = 0.28mm
; top infill extrusion width = 0.25mm
; first layer extrusion width = 0.40mm

M73 P0 R8

; printing object internal_part_0.stl id:0 copy 0
; stop printing object internal_part_0.stl id:0 copy 0

;TYPE:Custom
M220 S100
M221 S100
SET_TOOL_TEMPERATURE TOOL=0 STDB_TIMEOUT=120
SET_TOOL_TEMPERATURE TOOL=1 STDB_TIMEOUT=120

START_PRINT INITIAL_EXTRUDER=0 EXTRUDER_TEMP=220 EXTRUDER_STDB_TEMP=160 BED_TEMP=60 X0=46.4644 Y0=96.4644 X1=71.5356 Y1=133.936 T0=1
G21 ; set units to millimeters
G90 ; use absolute coordinates
M83 ; use relative distances for extrusion
; Filament gcode
SET_PRESSURE_ADVANCE ADVANCE=0.032
M107 ; disable fan
;LAYER_CHANGE
;Z:0.2
;HEIGHT:0.2
G1 E-.8 F2400 ; retract
G1 Z.2 ; lift
G1 X48.127 Y97.214 F48000 ; move to first layer point
G1 Z.2 F2400 ; move to first layer point
G1 E.8 ;  ; unretract
M204 S2000 ; adjust acceleration
;TYPE:Skirt/Brim
;WIDTH:0.4
G1 F3600
G1 X50 Y96.643 E.05058 ; skirt
G1 X68 Y96.643 E.46497 ; skirt
G1 X69.578 Y97.037 E.04201 ; skirt
G1 X70.786 Y98.127 E.04203 ; skirt
G1 X71.357 Y100 E.05058 ; skirt
G1 X71.357 Y130.4 E.78528 ; skirt
G1 X70.963 Y131.978 E.04201 ; skirt
G1 X69.873 Y133.186 E.04203 ; skirt
G1 X68 Y133.757 E.05058 ; skirt
G1 X50 Y133.757 E.46497 ; skirt
G1 X48.422 Y133.363 E.04201 ; skirt
G1 X47.214 Y132.273 E.04203 ; skirt
G1 X46.643 Y130.4 E.05058 ; skirt
G1 X46.643 Y100 E.78528 ; skirt
G1 X47.037 Y98.422 E.04201 ; skirt
G1 X48.101 Y97.242 E.04104 ; skirt
M204 S20000 ; adjust acceleration
G1 E-.2 F2400 ; retract
;WIPE_START
G1 F38400
G1 X48.127 Y97.214 E-.00227 ; wipe and retract
G1 X50 Y96.643 E-.11626 ; wipe and retract
G1 X58.109 Y96.643 E-.48147 ; wipe and retract
M73 P0 R7
;WIPE_END
; printing object internal_part_0.stl id:0 copy 0
G1 X67.293 Y129.693 F48000 ; move to first perimeter point
G1 E.8 F2400 ;  ; unretract
M204 S2000 ; adjust acceleration
;TYPE:Perimeter
;WIDTH:0.399999
G1 F3600
G1 X50.707 Y129.693 E.42844 ; perimeter
G1 X50.707 Y100.707 E.74875 ; perimeter
G1 X67.293 Y100.707 E.42844 ; perimeter
G1 X67.293 Y109 E.21422 ; perimeter
G1 X67.293 Y129.655 E.53355 ; perimeter
M204 S20000 ; adjust acceleration
G1 X67.293 Y129.655 F48000 ; move to first perimeter point
M73 P1 R7
G1 X67.65 Y130.05 ; move to first perimeter point
M204 S2000 ; adjust acceleration
;TYPE:External perimeter
G1 F3600
G1 X50.35 Y130.05 E.44688 ; perimeter
G1 X50.35 Y100.35 E.76719 ; perimeter
G1 X67.65 Y100.35 E.44688 ; perimeter
G1 X67.65 Y109 E.22344 ; perimeter
G1 X67.65 Y130.012 E.54277 ; perimeter
M204 S20000 ; adjust acceleration
G1 E-.2 F2400 ; retract
;WIPE_START
G1 F38400
G1 X67.65 Y130.05 E-.00226 ; wipe and retract
G1 X57.583 Y130.05 E-.59774 ; wipe and retract
;WIPE_END
G1 X67.186 Y100.976 F48000 ; move to first infill point
G1 E.8 F2400 ;  ; unretract
M204 S2000 ; adjust acceleration
;TYPE:Solid infill
;WIDTH:0.403011
G1 F3600
G1 X50.975 Y100.976 E.42228 ; infill
G1 X50.975 Y101.337 E.0094 ; infill
G1 X67.025 Y101.337 E.41809 ; infill
G1 X67.025 Y101.697 E.00938 ; infill
G1 X50.975 Y101.697 E.41809 ; infill
G1 X50.975 Y102.057 E.00938 ; infill
G1 X67.025 Y102.057 E.41809 ; infill
G1 X67.025 Y102.417 E.00938 ; infill
G1 X50.975 Y102.417 E.41809 ; infill
G1 X50.975 Y102.777 E.00938 ; infill
G1 X67.025 Y102.777 E.41809 ; infill
G1 X67.025 Y103.137 E.00938 ; infill
G1 X50.975 Y103.137 E.41809 ; infill
G1 X50.975 Y103.497 E.00938 ; infill
G1 X67.025 Y103.497 E.41809 ; infill
G1 X67.025 Y103.857 E.00938 ; infill
G1 X50.975 Y103.857 E.41809 ; infill
G1 X50.975 Y104.217 E.00938 ; infill
M73 P2 R7
G1 X67.025 Y104.217 E.41809 ; infill
G1 X67.025 Y104.577 E.00938 ; infill
G1 X50.975 Y104.577 E.41809 ; infill
G1 X50.975 Y104.937 E.00938 ; infill
G1 X67.025 Y104.937 E.41809 ; infill
G1 X67.025 Y105.298 E.0094 ; infill
G1 X50.975 Y105.298 E.41809 ; infill
G1 X50.975 Y105.658 E.00938 ; infill
G1 X67.025 Y105.658 E.41809 ; infill
G1 X67.025 Y106.018 E.00938 ; infill
G1 X50.975 Y106.018 E.41809 ; infill
G1 X50.975 Y106.378 E.00938 ; infill
G1 X67.025 Y106.378 E.41809 ; infill
G1 X67.025 Y106.738 E.00938 ; infill
G1 X50.975 Y106.738 E.41809 ; infill
G1 X50.975 Y107.098 E.00938 ; infill
G1 X67.025 Y107.098 E.41809 ; infill
G1 X67.025 Y107.458 E.00938 ; infill
G1 X50.975 Y107.458 E.41809 ; infill
G1 X50.975 Y107.818 E.00938 ; infill
G1 X67.025 Y107.818 E.41809 ; infill
G1 X67.025 Y108.178 E.00938 ; infill
G1 X50.975 Y108.178 E.41809 ; infill
G1 X50.975 Y108.538 E.00938 ; infill
G1 X67.025 Y108.538 E.41809 ; infill
G1 X67.025 Y108.898 E.00938 ; infill
G1 X50.975 Y108.898 E.41809 ; infill
G1 X50.975 Y109.259 E.0094 ; infill
G1 X67.025 Y109.259 E.41809 ; infill
G1 X67.025 Y109.619 E.00938 ; infill
M73 P3 R7
G1 X50.975 Y109.619 E.41809 ; infill
G1 X50.975 Y109.979 E.00938 ; infill
G1 X67.025 Y109.979 E.41809 ; infill
G1 X67.025 Y110.339 E.00938 ; infill
G1 X50.975 Y110.339 E.41809 ; infill
G1 X50.975 Y110.699 E.00938 ; infill
G1 X67.025 Y110.699 E.41809 ; infill
G1 X67.025 Y111.059 E.00938 ; infill
G1 X50.975 Y111.059 E.41809 ; infill
G1 X50.975 Y111.419 E.00938 ; infill
G1 X67.025 Y111.419 E.41809 ; infill
G1 X67.025 Y111.779 E.00938 ; infill
G1 X50.975 Y111.779 E.41809 ; infill
G1 X50.975 Y112.139 E.00938 ; infill
G1 X67.025 Y112.139 E.41809 ; infill
G1 X67.025 Y112.499 E.00938 ; infill
G1 X50.975 Y112.499 E.41809 ; infill
G1 X50.975 Y112.859 E.00938 ; infill
G1 X67.025 Y112.859 E.41809 ; infill
G1 X67.025 Y113.22 E.0094 ; infill
G1 X50.975 Y113.22 E.41809 ; infill
G1 X50.975 Y113.58 E.00938 ; infill
G1 X67.025 Y113.58 E.41809 ; infill
G1 X67.025 Y113.94 E.00938 ; infill
G1 X50.975 Y113.94 E.41809 ; infill
G1 X50.975 Y114.3 E.00938 ; infill
G1 X67.025 Y114.3 E.41809 ; infill
G1 X67.025 Y114.66 E.00938 ; infill
G1 X50.975 Y114.66 E.41809 ; infill
G1 X50.975 Y115.02 E.00938 ; infill
G1 X67.025 Y115.02 E.41809 ; infill
M73 P4 R7
G1 X67.025 Y115.38 E.00938 ; infill
G1 X50.975 Y115.38 E.41809 ; infill
G1 X50.975 Y115.74 E.00938 ; infill
G1 X67.025 Y115.74 E.41809 ; infill
G1 X67.025 Y116.1 E.00938 ; infill
G1 X50.975 Y116.1 E.41809 ; infill
G1 X50.975 Y116.46 E.00938 ; infill
G1 X67.025 Y116.46 E.41809 ; infill
G1 X67.025 Y116.82 E.00938 ; infill
G1 X50.975 Y116.82 E.41809 ; infill
G1 X50.975 Y117.181 E.0094 ; infill
G1 X67.025 Y117.181 E.41809 ; infill
G1 X67.025 Y117.541 E.00938 ; infill
G1 X50.975 Y117.541 E.41809 ; infill
G1 X50.975 Y117.901 E.00938 ; infill
G1 X67.025 Y117.901 E.41809 ; infill
G1 X67.025 Y118.261 E.00938 ; infill
G1 X50.975 Y118.261 E.41809 ; infill
G1 X50.975 Y118.621 E.00938 ; infill
G1 X67.025 Y118.621 E.41809 ; infill
G1 X67.025 Y118.981 E.00938 ; infill
G1 X50.975 Y118.981 E.41809 ; infill
G1 X50.975 Y119.341 E.00938 ; infill
G1 X67.025 Y119.341 E.41809 ; infill
G1 X67.025 Y119.701 E.00938 ; infill
G1 X50.975 Y119.701 E.41809 ; infill
G1 X50.975 Y120.061 E.00938 ; infill
G1 X67.025 Y120.061 E.41809 ; infill
G1 X67.025 Y120.421 E.00938 ; infill
G1 X50.975 Y120.421 E.41809 ; infill
G1 X50.975 Y120.781 E.00938 ; infill
M73 P5 R7
G1 X67.025 Y120.781 E.41809 ; infill
G1 X67.025 Y121.142 E.0094 ; infill
G1 X50.975 Y121.142 E.41809 ; infill
G1 X50.975 Y121.502 E.00938 ; infill
G1 X67.025 Y121.502 E.41809 ; infill
G1 X67.025 Y121.862 E.00938 ; infill
G1 X50.975 Y121.862 E.41809 ; infill
G1 X50.975 Y122.222 E.00938 ; infill
G1 X67.025 Y122.222 E.41809 ; infill
G1 X67.025 Y122.582 E.00938 ; infill
G1 X50.975 Y122.582 E.41809 ; infill
G1 X50.975 Y122.942 E.00938 ; infill
G1 X67.025 Y122.942 E.41809 ; infill
G1 X67.025 Y123.302 E.00938 ; infill
G1 X50.975 Y123.302 E.41809 ; infill
G1 X50.975 Y123.662 E.00938 ; infill
G1 X67.025 Y123.662 E.41809 ; infill
G1 X67.025 Y124.022 E.00938 ; infill
G1 X50.975 Y124.022 E.41809 ; infill
G1 X50.975 Y124.382 E.00938 ; infill
G1 X67.025 Y124.382 E.41809 ; infill
G1 X67.025 Y124.742 E.00938 ; infill
G1 X50.975 Y124.742 E.41809 ; infill
G1 X50.975 Y125.103 E.0094 ; infill
G1 X67.025 Y125.103 E.41809 ; infill
G1 X67.025 Y125.463 E.00938 ; infill
G1 X50.975 Y125.463 E.41809 ; infill
G1 X50.975 Y125.823 E.00938 ; infill
G1 X67.025 Y125.823 E.41809 ; infill
G1 X67.025 Y126.183 E.00938 ; infill
M73 P6 R7
G1 X50.975 Y126.183 E.41809 ; infill
G1 X50.975 Y126.543 E.00938 ; infill
G1 X67.025 Y126.543 E.41809 ; infill
G1 X67.025 Y126.903 E.00938 ; infill
G1 X50.975 Y126.903 E.41809 ; infill
G1 X50.975 Y127.263 E.00938 ; infill
G1 X67.025 Y127.263 E.41809 ; infill
G1 X67.025 Y127.623 E.00938 ; infill
G1 X50.975 Y127.623 E.41809 ; infill
G1 X50.975 Y127.983 E.00938 ; infill
G1 X67.025 Y127.983 E.41809 ; infill
G1 X67.025 Y128.343 E.00938 ; infill
G1 X50.975 Y128.343 E.41809 ; infill
G1 X50.975 Y128.703 E.00938 ; infill
G1 X67.025 Y128.703 E.41809 ; infill
G1 X67.025 Y129.064 E.0094 ; infill
G1 X50.975 Y129.064 E.41809 ; infill
G1 X50.975 Y129.424 E.00938 ; infill
G1 X67.186 Y129.424 E.42228 ; infill
M204 S20000 ; adjust acceleration
M106 S127.5 ; enable fan
;LAYER_CHANGE
;Z:0.4
;HEIGHT:0.2
;BEFORE_LAYER_CHANGE
;0.4
G92 E0
G1 E-.2 F2400 ; retract
;WIPE_START
G1 F38400
G1 X57.081 Y129.424 E-.6 ; wipe and retract
;WIPE_END
G1 Z.4 F2400 ; simple layer change
;AFTER_LAYER_CHANGE
;0.4
; stop printing object internal_part_0.stl id:0 copy 0
G1 Z.4 ; travel to first layer point
G1 X57.081 Y133.757 F48000 ; travel to first layer point
G1 E.8 F2400 ;  ; unretract
;TYPE:Skirt/Brim
;WIDTH:0.4
G1 F6000
G1 X50 Y133.757 E.18291 ; skirt
G1 X48.422 Y133.363 E.04201 ; skirt
G1 X47.214 Y132.273 E.04203 ; skirt
G1 X46.643 Y130.4 E.05058 ; skirt
G1 X46.643 Y100 E.78528 ; skirt
G1 X47.037 Y98.422 E.04201 ; skirt
G1 X48.127 Y97.214 E.04203 ; skirt
G1 X50 Y96.643 E.05058 ; skirt
G1 X68 Y96.643 E.46497 ; skirt
G1 X69.578 Y97.037 E.04201 ; skirt
G1 X70.786 Y98.127 E.04203 ; skirt
G1 X71.357 Y100 E.05058 ; skirt
G1 X71.357 Y130.4 E.78528 ; skirt
G1 X70.963 Y131.978 E.04201 ; skirt
G1 X69.873 Y133.186 E.04203 ; skirt
G1 X68 Y133.757 E.05058 ; skirt
G1 X57.119 Y133.757 E.28107 ; skirt
G1 E-.2 F2400 ; retract
M73 P7 R7
;WIPE_START
G1 F38400
G1 X57.081 Y133.757 E-.00226 ; wipe and retract
G1 X50 Y133.757 E-.42043 ; wipe and retract
G1 X48.422 Y133.363 E-.09657 ; wipe and retract
G1 X47.413 Y132.452 E-.08074 ; wipe and retract
;WIPE_END
; printing object internal_part_0.stl id:0 copy 0
G1 X67.621 Y130.021 F48000 ; move to first perimeter point
G1 E.8 F2400 ;  ; unretract
;TYPE:Perimeter
;WIDTH:0.281249
G1 F12000
G1 X50.379 Y130.021 E.29727 ; perimeter
G1 X50.379 Y100.379 E.51105 ; perimeter
G1 X67.621 Y100.379 E.29727 ; perimeter
G1 F9021.025
G1 X67.621 Y109 E.14863 ; perimeter
G1 X67.621 Y129.984 E.36178 ; perimeter
G1 X67.621 Y129.984 F48000 ; move to first perimeter point
G1 X67.859 Y130.259 ; move to first perimeter point
M204 S2000 ; adjust acceleration
;TYPE:External perimeter
G1 F7006.501
G1 X67.438 Y130.259 E.00726 ; perimeter
G1 F9000
G1 X50.141 Y130.259 E.29822 ; perimeter
G1 X50.141 Y100.141 E.51926 ; perimeter
G1 X67.438 Y100.141 E.29822 ; perimeter
G1 F7006.501
G1 X67.859 Y100.141 E.00726 ; perimeter
G1 F6670.127
G1 X67.859 Y109 E.15274 ; perimeter
G1 F7006.502
G1 X67.859 Y109.422 E.00728 ; perimeter
G1 F8999.945
G1 X67.859 Y129.837 E.35197 ; perimeter
G1 F6670.127
G1 X67.859 Y130.222 E.00664 ; perimeter
M204 S20000 ; adjust acceleration
G1 E-.2 F2400 ; retract
;WIPE_START
G1 F38400
G1 X67.859 Y130.259 E-.0022 ; wipe and retract
G1 X67.438 Y130.259 E-.025 ; wipe and retract
G1 X57.791 Y130.259 E-.5728 ; wipe and retract
;WIPE_END
G1 X50.498 Y100.498 F48000 ; move to first infill point
G1 E.8 F2400 ;  ; unretract
;TYPE:Solid infill
;WIDTH:0.25542
G1 F9000
G1 X50.498 Y129.902 E.45201 ; infill
;WIDTH:0.281249
G1 X50.677 Y129.842 E.00325 ; infill
G1 X50.677 Y100.558 E.50488 ; infill
G1 X50.915 Y100.558 E.0041 ; infill
G1 X50.915 Y129.842 E.50488 ; infill
G1 X51.154 Y129.842 E.00412 ; infill
G1 X51.154 Y100.558 E.50488 ; infill
G1 X51.392 Y100.558 E.0041 ; infill
G1 X51.392 Y129.842 E.50488 ; infill
G1 X51.63 Y129.842 E.0041 ; infill
G1 X51.63 Y100.558 E.50488 ; infill
G1 X51.869 Y100.558 E.00412 ; infill
G1 X51.869 Y129.842 E.50488 ; infill
G1 X52.107 Y129.842 E.0041 ; infill
G1 X52.107 Y100.558 E.50488 ; infill
G1 X52.345 Y100.558 E.0041 ; infill
G1 X52.345 Y129.842 E.50488 ; infill
G1 X52.583 Y129.842 E.0041 ; infill
G1 X52.584 Y100.558 E.50488 ; infill
G1 X52.822 Y100.558 E.0041 ; infill
G1 X52.822 Y129.842 E.50488 ; infill
G1 X53.06 Y129.842 E.0041 ; infill
G1 X53.06 Y100.558 E.50488 ; infill
G1 X53.298 Y100.558 E.0041 ; infill
G1 X53.298 Y129.842 E.50488 ; infill
G1 X53.537 Y129.842 E.00412 ; infill
M73 P8 R7
G1 X53.537 Y100.558 E.50488 ; infill
G1 X53.775 Y100.558 E.0041 ; infill
G1 X53.775 Y129.842 E.50488 ; infill
G1 X54.013 Y129.842 E.0041 ; infill
G1 X54.013 Y100.558 E.50488 ; infill
G1 X54.252 Y100.558 E.00412 ; infill
G1 X54.252 Y129.842 E.50488 ; infill
G1 X54.49 Y129.842 E.0041 ; infill
G1 X54.49 Y100.558 E.50488 ; infill
G1 X54.728 Y100.558 E.0041 ; infill
G1 X54.728 Y129.842 E.50488 ; infill
G1 X54.967 Y129.842 E.00412 ; infill
G1 X54.967 Y100.558 E.50488 ; infill
G1 X55.205 Y100.558 E.0041 ; infill
G1 X55.205 Y129.842 E.50488 ; infill
G1 X55.443 Y129.842 E.0041 ; infill
G1 X55.443 Y100.558 E.50488 ; infill
G1 X55.682 Y100.558 E.00412 ; infill
G1 X55.682 Y129.842 E.50488 ; infill
G1 X55.92 Y129.842 E.0041 ; infill
G1 X55.92 Y100.558 E.50488 ; infill
G1 X56.158 Y100.558 E.0041 ; infill
G1 X56.158 Y129.842 E.50488 ; infill
G1 X56.397 Y129.842 E.00412 ; infill
G1 X56.397 Y100.558 E.50488 ; infill
G1 X56.635 Y100.558 E.0041 ; infill
G1 X56.635 Y129.842 E.50488 ; infill
G1 X56.873 Y129.842 E.0041 ; infill
G1 X56.873 Y100.558 E.50488 ; infill
G1 X57.112 Y100.558 E.00412 ; infill
G1 X57.112 Y129.842 E.50488 ; infill
G1 X57.35 Y129.842 E.0041 ; infill
G1 X57.35 Y100.558 E.50488 ; infill
G1 X57.588 Y100.558 E.0041 ; infill
G1 X57.588 Y129.842 E.50488 ; infill
G1 X57.827 Y129.842 E.00412 ; infill
G1 X57.827 Y100.558 E.50488 ; infill
G1 X58.065 Y100.558 E.0041 ; infill
G1 X58.065 Y129.842 E.50488 ; infill
G1 X58.303 Y129.842 E.0041 ; infill
G1 X58.303 Y100.558 E.50488 ; infill
G1 X58.542 Y100.558 E.00412 ; infill
G1 X58.542 Y129.842 E.50488 ; infill
G1 X58.78 Y129.842 E.0041 ; infill
G1 X58.78 Y100.558 E.50488 ; infill
G1 X59.018 Y100.558 E.0041 ; infill
M73 P9 R7
G1 X59.018 Y129.842 E.50488 ; infill
G1 X59.257 Y129.842 E.00412 ; infill
G1 X59.257 Y100.558 E.50488 ; infill
G1 X59.495 Y100.558 E.0041 ; infill
G1 X59.495 Y129.842 E.50488 ; infill
G1 X59.733 Y129.842 E.0041 ; infill
G1 X59.733 Y100.558 E.50488 ; infill
G1 X59.972 Y100.558 E.00412 ; infill
G1 X59.972 Y129.842 E.50488 ; infill
G1 X60.21 Y129.842 E.0041 ; infill
G1 X60.21 Y100.558 E.50488 ; infill
G1 X60.448 Y100.558 E.0041 ; infill
G1 X60.448 Y129.842 E.50488 ; infill
G1 X60.687 Y129.842 E.00412 ; infill
G1 X60.687 Y100.558 E.50488 ; infill
G1 X60.925 Y100.558 E.0041 ; infill
G1 X60.925 Y129.842 E.50488 ; infill
G1 X61.163 Y129.842 E.0041 ; infill
G1 X61.163 Y100.558 E.50488 ; infill
G1 X61.402 Y100.558 E.00412 ; infill
G1 X61.402 Y129.842 E.50488 ; infill
G1 X61.64 Y129.842 E.0041 ; infill
G1 X61.64 Y100.558 E.50488 ; infill
G1 X61.878 Y100.558 E.0041 ; infill
G1 X61.878 Y129.842 E.50488 ; infill
G1 X62.117 Y129.842 E.00412 ; infill
G1 X62.117 Y100.558 E.50488 ; infill
G1 X62.355 Y100.558 E.0041 ; infill
G1 X62.355 Y129.842 E.50488 ; infill
G1 X62.593 Y129.842 E.0041 ; infill
G1 X62.593 Y100.558 E.50488 ; infill
G1 X62.832 Y100.558 E.00412 ; infill
G1 X62.832 Y129.842 E.50488 ; infill
G1 X63.07 Y129.842 E.0041 ; infill
G1 X63.07 Y100.558 E.50488 ; infill
G1 X63.308 Y100.558 E.0041 ; infill
G1 X63.308 Y129.842 E.50488 ; infill
G1 X63.547 Y129.842 E.00412 ; infill
G1 X63.547 Y100.558 E.50488 ; infill
G1 X63.785 Y100.558 E.0041 ; infill
G1 X63.785 Y129.842 E.50488 ; infill
G1 X64.023 Y129.842 E.0041 ; infill
G1 X64.023 Y100.558 E.50488 ; infill
G1 X64.262 Y100.558 E.00412 ; infill
G1 X64.262 Y129.842 E.50488 ; infill
G1 X64.5 Y129.842 E.0041 ; infill
M73 P10 R7
