; generated by PrusaSlicer 2.7.4 on 2025-04-02 at 16:35:26 UTC

; 

; external perimeters extrusion width = 0.45mm
; perimeters extrusion width = 0.45mm
; infill extrusion width = 0.45mm
; solid infill extrusion width = 0.45mm
; top infill extrusion width = 0.40mm
; first layer extrusion width = 0.70mm

; external perimeters extrusion width = 0.45mm
; perimeters extrusion width = 0.45mm
; infill extrusion width = 0.45mm
; solid infill extrusion width = 0.45mm
; top infill extrusion width = 0.40mm
; first layer extrusion width = 0.70mm

; external perimeters extrusion width = 0.45mm
; perimeters extrusion width = 0.45mm
; infill extrusion width = 0.45mm
; solid infill extrusion width = 0.45mm
; top infill extrusion width = 0.40mm
; first layer extrusion width = 0.70mm

; external perimeters extrusion width = 0.45mm
; perimeters extrusion width = 0.45mm
; infill extrusion width = 0.45mm
; solid infill extrusion width = 0.45mm
; top infill extrusion width = 0.40mm
; first layer extrusion width = 0.70mm

; external perimeters extrusion width = 0.45mm
; perimeters extrusion width = 0.45mm
; infill extrusion width = 0.45mm
; solid infill extrusion width = 0.45mm
; top infill extrusion width = 0.40mm
; first layer extrusion width = 0.70mm

M104 S200 ; set temperature
;TYPE:Custom
G28 ; home all axes
G1 Z5 F5000 ; lift nozzle
M109 S200 ; set temperature and wait for it to be reached
G21 ; set units to millimeters
G90 ; use absolute coordinates
M82 ; use absolute distances for extrusion
G92 E0
; Filament gcode
M107
;LAYER_CHANGE
;Z:0.35
;HEIGHT:0.35
G1 E-2 F2400
G1 Z.35 F7800
G1 X44.915 Y45.753
G1 E0 F2400
;TYPE:Skirt/Brim
;WIDTH:0.7
G1 F1800
G1 X46.668 Y44.274 E.20855
G1 X48.82 Y43.481 E.41709
G1 X50 Y43.375 E.52482
G1 X200 Y43.375 E14.16426
G1 X202.259 Y43.772 E14.37282
G1 X204.247 Y44.915 E14.58134
G1 X205.726 Y46.668 E14.78989
G1 X206.519 Y48.82 E14.99843
G1 X206.625 Y50 E15.10616
G1 X206.625 Y65 E16.4701
G1 X206.228 Y67.259 E16.67866
G1 X205.085 Y69.247 E16.88718
G1 X202.874 Y70.969 E17.14201
G1 X67.874 Y135.969 E30.76628
G1 X65 Y136.625 E31.03433
G1 X50 Y136.625 E32.39827
G1 X47.741 Y136.228 E32.60683
G1 X45.753 Y135.085 E32.81535
G1 X44.274 Y133.332 E33.0239
G1 X43.481 Y131.18 E33.23244
G1 X43.375 Y130 E33.34017
G1 X43.375 Y50 E40.61454
G1 X43.772 Y47.741 E40.8231
G1 X44.886 Y45.805 E41.0262
G1 E39.0262 F2400
G92 E0
G1 X44.886 Y45.805 F7800
G92 E0
G1 X63.4 Y128.4
G1 E2 F2400
;TYPE:Perimeter
;WIDTH:0.7
G1 F1800
G1 X51.6 Y128.4 E3.07297
G1 X51.6 Y116.6 E4.14594
G1 X63.4 Y116.6 E5.21891
G1 X63.4 Y122.5 E5.75539
G1 X63.4 Y128.34 E6.28642
G1 X63.4 Y128.34 F7800
G1 X64.025 Y129.025
G1 F1800
G1 X50.975 Y129.025 E7.47305
G1 X50.975 Y115.975 E8.65968
G1 X64.025 Y115.975 E9.84631
G1 X64.025 Y122.5 E10.43963
G1 X64.025 Y128.965 E11.02749
G1 X64.025 Y128.965 F7800
G1 X64.65 Y129.65
;TYPE:External perimeter
G1 F1800
G1 X50.35 Y129.65 E12.32778
G1 X50.35 Y115.35 E13.62807
G1 X64.65 Y115.35 E14.92836
G1 X64.65 Y122.5 E15.57851
G1 X64.65 Y129.59 E16.2232
G1 X64.254 Y129.649 F7800
G1 E14.2232 F2400
G92 E0
G1 X63.213 Y118.103 F7800
G1 E2 F2400
;TYPE:Solid infill
;WIDTH:0.72497
G1 F1800
G1 X62.178 Y117.068 E2.13841
G1 X61.259 Y117.068 E2.22531
G1 X62.932 Y118.741 E2.44904
G1 X62.932 Y119.66 E2.53594
G1 X60.34 Y117.068 E2.88257
G1 X59.421 Y117.068 E2.96947
G1 X62.932 Y120.579 E3.439
G1 X62.932 Y121.498 E3.5259
G1 X58.502 Y117.068 E4.11833
G1 X57.583 Y117.068 E4.20523
G1 X62.932 Y122.417 E4.92056
G1 X62.932 Y123.336 E5.00746
G1 X56.664 Y117.068 E5.84569
G1 X55.745 Y117.068 E5.93259
G1 X62.932 Y124.255 E6.89372
G1 X62.932 Y125.175 E6.98072
G1 X54.826 Y117.068 E8.06482
G1 X53.906 Y117.068 E8.15182
G1 X62.932 Y126.094 E9.35889
G1 X62.932 Y127.013 E9.44579
G1 X52.987 Y117.068 E10.77576
G1 X52.068 Y117.068 E10.86266
G1 X62.931 Y127.932 E12.31546
G1 X62.012 Y127.932 E12.40236
G1 X52.068 Y117.988 E13.73219
G1 X52.068 Y118.907 E13.81909
G1 X61.093 Y127.932 E15.02602
G1 X60.174 Y127.932 E15.11292
G1 X52.068 Y119.826 E16.19695
G1 X52.068 Y120.745 E16.28385
G1 X59.255 Y127.932 E17.24498
G1 X58.336 Y127.932 E17.33188
G1 X52.068 Y121.664 E18.17011
G1 X52.068 Y122.583 E18.25701
G1 X57.417 Y127.932 E18.97234
G1 X56.498 Y127.932 E19.05924
G1 X52.068 Y123.502 E19.65167
G1 X52.068 Y124.421 E19.73857
G1 X55.579 Y127.932 E20.2081
G1 X54.66 Y127.932 E20.295
G1 X52.068 Y125.34 E20.64163
G1 X52.068 Y126.259 E20.72853
G1 X53.741 Y127.932 E20.95226
G1 X52.822 Y127.932 E21.03916
G1 X51.787 Y126.897 E21.17757
G1 E19.17757 F2400
G92 E0
G1 X51.787 Y126.897 F7800
G92 E0
G1 X63.4 Y63.4
G1 E2 F2400
;TYPE:Perimeter
;WIDTH:0.7
G1 F1800
G1 X51.6 Y63.4 E3.07297
G1 X51.6 Y51.6 E4.14594
G1 X63.4 Y51.6 E5.21891
G1 X63.4 Y57.5 E5.75539
G1 X63.4 Y63.34 E6.28642
G1 X63.4 Y63.34 F7800
G1 X64.025 Y64.025
G1 F1800
G1 X50.975 Y64.025 E7.47305
G1 X50.975 Y50.975 E8.65968
G1 X64.025 Y50.975 E9.84631
G1 X64.025 Y57.5 E10.43963
G1 X64.025 Y63.965 E11.02749
G1 X64.025 Y63.965 F7800
G1 X64.65 Y64.65
;TYPE:External perimeter
G1 F1800
G1 X50.35 Y64.65 E12.32778
G1 X50.35 Y50.35 E13.62807
G1 X64.65 Y50.35 E14.92836
G1 X64.65 Y57.5 E15.57851
G1 X64.65 Y64.59 E16.2232
G1 X64.254 Y64.649 F7800
G1 E14.2232 F2400
G92 E0
G1 X63.213 Y53.103 F7800
G1 E2 F2400
;TYPE:Solid infill
;WIDTH:0.72497
G1 F1800
G1 X62.178 Y52.068 E2.13841
G1 X61.259 Y52.068 E2.22531
G1 X62.932 Y53.741 E2.44904
G1 X62.932 Y54.66 E2.53594
G1 X60.34 Y52.068 E2.88257
G1 X59.421 Y52.068 E2.96947
G1 X62.932 Y55.579 E3.439
G1 X62.932 Y56.498 E3.5259
G1 X58.502 Y52.068 E4.11833
G1 X57.583 Y52.068 E4.20523
G1 X62.932 Y57.417 E4.92056
G1 X62.932 Y58.336 E5.00746
G1 X56.664 Y52.068 E5.84569
G1 X55.745 Y52.068 E5.93259
G1 X62.932 Y59.255 E6.89372
G1 X62.932 Y60.175 E6.98072
G1 X54.826 Y52.068 E8.06482
G1 X53.906 Y52.068 E8.15182
G1 X62.932 Y61.094 E9.35889
G1 X62.932 Y62.013 E9.44579
G1 X52.987 Y52.068 E10.77576
G1 X52.068 Y52.068 E10.86266
G1 X62.931 Y62.932 E12.31546
G1 X62.012 Y62.932 E12.40236
G1 X52.068 Y52.988 E13.73219
G1 X52.068 Y53.907 E13.81909
G1 X61.093 Y62.932 E15.02602
G1 X60.174 Y62.932 E15.11292
G1 X52.068 Y54.826 E16.19695
G1 X52.068 Y55.745 E16.28385
G1 X59.255 Y62.932 E17.24498
G1 X58.336 Y62.932 E17.33188
G1 X52.068 Y56.664 E18.17011
G1 X52.068 Y57.583 E18.25701
G1 X57.417 Y62.932 E18.97234
G1 X56.498 Y62.932 E19.05924
G1 X52.068 Y58.502 E19.65167
G1 X52.068 Y59.421 E19.73857
G1 X55.579 Y62.932 E20.2081
G1 X54.66 Y62.932 E20.295
G1 X52.068 Y60.34 E20.64163
G1 X52.068 Y61.259 E20.72853
G1 X53.741 Y62.932 E20.95226
G1 X52.822 Y62.932 E21.03916
G1 X51.787 Y61.897 E21.17757
G1 E19.17757 F2400
G92 E0
G1 X51.787 Y61.897 F7800
G92 E0
G1 X128.4 Y93.4
G1 E2 F2400
;TYPE:Perimeter
;WIDTH:0.7
G1 F1800
G1 X86.6 Y93.4 E5.80085
G1 X86.6 Y51.6 E9.6017
G1 X128.4 Y51.6 E13.40255
G1 X128.4 Y72.5 E15.30298
G1 X128.4 Y93.34 E17.19795
G1 X128.4 Y93.34 F7800
G1 X129.025 Y94.025
G1 F1800
G1 X85.975 Y94.025 E21.11247
G1 X85.975 Y50.975 E25.02699
G1 X129.025 Y50.975 E28.94151
G1 X129.025 Y72.5 E30.89877
G1 X129.025 Y93.965 E32.85057
G1 X129.025 Y93.965 F7800
G1 X129.65 Y94.65
;TYPE:External perimeter
G1 F1800
G1 X85.35 Y94.65 E36.87875
G1 X85.35 Y50.35 E40.90693
G1 X129.65 Y50.35 E44.93511
G1 X129.65 Y72.5 E46.9492
G1 X129.65 Y94.59 E48.95783
G1 X129.254 Y94.649 F7800
G1 E46.95783 F2400
G92 E0
G1 X128.213 Y53.063 F7800
G1 E2 F2400
;TYPE:Solid infill
;WIDTH:0.706002
G1 F1800
G1 X127.218 Y52.068 E2.12918
G1 X126.326 Y52.068 E2.21107
G1 X127.932 Y53.674 E2.41958
G1 X127.932 Y54.566 E2.50147
G1 X125.434 Y52.068 E2.82578
G1 X124.541 Y52.068 E2.90776
G1 X127.932 Y55.459 E3.34801
G1 X127.932 Y56.351 E3.4299
G1 X123.649 Y52.068 E3.98596
G1 X122.757 Y52.068 E4.06785
G1 X127.932 Y57.243 E4.73971
G1 X127.932 Y58.135 E4.8216
G1 X121.865 Y52.068 E5.60927
G1 X120.973 Y52.068 E5.69116
G1 X127.932 Y59.027 E6.59464
G1 X127.932 Y59.92 E6.67662
G1 X120.08 Y52.068 E7.69604
G1 X119.188 Y52.068 E7.77793
G1 X127.932 Y60.812 E8.91315
G1 X127.932 Y61.704 E8.99504
G1 X118.296 Y52.068 E10.24607
G1 X117.404 Y52.068 E10.32796
G1 X127.932 Y62.596 E11.6948
G1 X127.932 Y63.489 E11.77678
G1 X116.511 Y52.068 E13.25956
G1 X115.619 Y52.068 E13.34145
G1 X127.932 Y64.381 E14.94003
G1 X127.932 Y65.273 E15.02192
G1 X114.727 Y52.068 E16.73631
G1 X113.835 Y52.068 E16.8182
G1 X127.932 Y66.165 E18.6484
G1 X127.932 Y67.057 E18.73029
G1 X112.943 Y52.068 E20.6763
G1 X112.05 Y52.068 E20.75828
G1 X127.932 Y67.95 E22.82022
G1 X127.932 Y68.842 E22.90211
G1 X111.158 Y52.068 E25.07986
G1 X110.266 Y52.068 E25.16175
G1 X127.932 Y69.734 E27.45531
G1 X127.932 Y70.626 E27.5372
G1 X109.374 Y52.068 E29.94656
G1 X108.482 Y52.068 E30.02845
G1 X127.932 Y71.518 E32.55362
G1 X127.932 Y72.411 E32.6356
G1 X107.589 Y52.068 E35.27671
G1 X106.697 Y52.068 E35.3586
G1 X127.932 Y73.303 E38.11552
G1 X127.932 Y74.195 E38.19741
G1 X105.805 Y52.068 E41.07013
G1 X104.913 Y52.068 E41.15202
G1 X127.932 Y75.087 E44.14055
G1 X127.932 Y75.98 E44.22253
G1 X104.02 Y52.068 E47.327
G1 X103.128 Y52.068 E47.40889
G1 X127.932 Y76.872 E50.62917
G1 X127.932 Y77.764 E50.71106
G1 X102.236 Y52.068 E54.04714
G1 X101.344 Y52.068 E54.12903
G1 X127.932 Y78.656 E57.58092
G1 X127.932 Y79.548 E57.66281
G1 X100.452 Y52.068 E61.23051
G1 X99.559 Y52.068 E61.31249
G1 X127.932 Y80.441 E64.99613
G1 X127.932 Y81.333 E65.07802
G1 X98.667 Y52.068 E68.87746
G1 X97.775 Y52.068 E68.95935
G1 X127.932 Y82.225 E72.8746
G1 X127.932 Y83.117 E72.95649
G1 X96.883 Y52.068 E76.98755
G1 X95.991 Y52.068 E77.06944
G1 X127.932 Y84.009 E81.2163
G1 X127.932 Y84.902 E81.29828
G1 X95.098 Y52.068 E85.56108
G1 X94.206 Y52.068 E85.64297
G1 X127.932 Y85.794 E90.02158
G1 X127.932 Y86.686 E90.10347
G1 X93.314 Y52.068 E94.59789
G1 X92.422 Y52.068 E94.67978
G1 X127.932 Y87.578 E99.29
G1 X127.932 Y88.471 E99.37198
G1 X91.529 Y52.068 E104.09814
G1 X90.637 Y52.068 E104.18003
G1 X127.932 Y89.363 E109.022
G1 X127.932 Y90.255 E109.10389
G1 X89.745 Y52.068 E114.06167
G1 X88.853 Y52.068 E114.14356
G1 X127.932 Y91.147 E119.21714
G1 X127.932 Y92.039 E119.29903
G1 X87.961 Y52.068 E124.48842
G1 X87.068 Y52.068 E124.5704
G1 X127.932 Y92.932 E129.87573
G1 X127.039 Y92.932 E129.95771
G1 X87.068 Y52.961 E135.1471
G1 X87.068 Y53.853 E135.22899
G1 X126.147 Y92.932 E140.30257
G1 X125.255 Y92.932 E140.38446
G1 X87.068 Y54.745 E145.34224
G1 X87.068 Y55.637 E145.42413
G1 X124.363 Y92.932 E150.2661
G1 X123.47 Y92.932 E150.34808
G1 X87.068 Y56.53 E155.07411
G1 X87.068 Y57.422 E155.156
G1 X122.578 Y92.932 E159.76622
G1 X121.686 Y92.932 E159.84811
G1 X87.068 Y58.314 E164.34253
G1 X87.068 Y59.206 E164.42442
G1 X120.794 Y92.932 E168.80303
G1 X119.902 Y92.932 E168.88492
G1 X87.068 Y60.098 E173.14772
G1 X87.068 Y60.991 E173.2297
G1 X119.009 Y92.932 E177.37656
G1 X118.117 Y92.932 E177.45845
G1 X87.068 Y61.883 E181.48951
G1 X87.068 Y62.775 E181.5714
G1 X117.225 Y92.932 E185.48665
G1 X116.333 Y92.932 E185.56854
G1 X87.068 Y63.667 E189.36798
G1 X87.068 Y64.559 E189.44987
G1 X115.441 Y92.932 E193.13351
G1 X114.548 Y92.932 E193.21549
G1 X87.068 Y65.452 E196.78319
G1 X87.068 Y66.344 E196.86508
G1 X113.656 Y92.932 E200.31697
G1 X112.764 Y92.932 E200.39886
G1 X87.068 Y67.236 E203.73494
G1 X87.068 Y68.128 E203.81683
G1 X111.872 Y92.932 E207.03711
G1 X110.979 Y92.932 E207.11909
G1 X87.068 Y69.021 E210.22343
G1 X87.068 Y69.913 E210.30532
G1 X110.087 Y92.932 E213.29385
G1 X109.195 Y92.932 E213.37574
G1 X87.068 Y70.805 E216.24846
G1 X87.068 Y71.697 E216.33035
G1 X108.303 Y92.932 E219.08727
G1 X107.411 Y92.932 E219.16916
G1 X87.068 Y72.589 E221.81027
G1 X87.068 Y73.482 E221.89225
G1 X106.518 Y92.932 E224.41742
G1 X105.626 Y92.932 E224.49931
G1 X87.068 Y74.374 E226.90867
G1 X87.068 Y75.266 E226.99056
G1 X104.734 Y92.932 E229.28412
G1 X103.842 Y92.932 E229.36601
G1 X87.068 Y76.158 E231.54376
G1 X87.068 Y77.051 E231.62574
G1 X102.95 Y92.932 E233.68762
G1 X102.057 Y92.932 E233.7696
G1 X87.068 Y77.943 E235.71561
G1 X87.068 Y78.835 E235.7975
G1 X101.165 Y92.932 E237.6277
G1 X100.273 Y92.932 E237.70959
G1 X87.068 Y79.727 E239.42398
G1 X87.068 Y80.619 E239.50587
G1 X99.381 Y92.932 E241.10445
G1 X98.488 Y92.932 E241.18643
G1 X87.068 Y81.512 E242.66908
G1 X87.068 Y82.404 E242.75097
G1 X97.596 Y92.932 E244.11781
G1 X96.704 Y92.932 E244.1997
G1 X87.068 Y83.296 E245.45073
G1 X87.068 Y84.188 E245.53262
G1 X95.812 Y92.932 E246.66784
G1 X94.92 Y92.932 E246.74973
G1 X87.068 Y85.08 E247.76915
G1 X87.068 Y85.973 E247.85113
G1 X94.027 Y92.932 E248.75461
G1 X93.135 Y92.932 E248.8365
G1 X87.068 Y86.865 E249.62417
G1 X87.068 Y87.757 E249.70606
G1 X92.243 Y92.932 E250.37792
G1 X91.351 Y92.932 E250.45981
G1 X87.068 Y88.649 E251.01587
G1 X87.068 Y89.542 E251.09785
G1 X90.458 Y92.932 E251.53797
G1 X89.566 Y92.932 E251.61986
G1 X87.068 Y90.434 E251.94417
G1 X87.068 Y91.326 E252.02606
G1 X88.674 Y92.932 E252.23457
G1 X87.782 Y92.932 E252.31646
G1 X86.787 Y91.937 E252.44564
G1 E250.44564 F2400
G92 E0
G1 X86.787 Y91.937 F7800
G92 E0
G1 X163.4 Y63.4
G1 E2 F2400
;TYPE:Perimeter
;WIDTH:0.7
G1 F1800
G1 X151.6 Y63.4 E3.07297
G1 X151.6 Y51.6 E4.14594
G1 X163.4 Y51.6 E5.21891
G1 X163.4 Y57.5 E5.75539
G1 X163.4 Y63.34 E6.28642
G1 X163.4 Y63.34 F7800
G1 X164.025 Y64.025
G1 F1800
G1 X150.975 Y64.025 E7.47305
G1 X150.975 Y50.975 E8.65968
G1 X164.025 Y50.975 E9.84631
G1 X164.025 Y57.5 E10.43963
G1 X164.025 Y63.965 E11.02749
G1 X164.025 Y63.965 F7800
G1 X164.65 Y64.65
;TYPE:External perimeter
G1 F1800
G1 X150.35 Y64.65 E12.32778
G1 X150.35 Y50.35 E13.62807
G1 X164.65 Y50.35 E14.92836
G1 X164.65 Y57.5 E15.57851
G1 X164.65 Y64.59 E16.2232
G1 X164.254 Y64.649 F7800
G1 E14.2232 F2400
G92 E0
G1 X163.213 Y53.103 F7800
G1 E2 F2400
;TYPE:Solid infill
;WIDTH:0.72497
G1 F1800
G1 X162.178 Y52.068 E2.13841
G1 X161.259 Y52.068 E2.22531
G1 X162.932 Y53.741 E2.44904
G1 X162.932 Y54.66 E2.53594
G1 X160.34 Y52.068 E2.88257
G1 X159.421 Y52.068 E2.96947
G1 X162.932 Y55.579 E3.439
G1 X162.932 Y56.498 E3.5259
G1 X158.502 Y52.068 E4.11833
G1 X157.583 Y52.068 E4.20523
G1 X162.932 Y57.417 E4.92056
G1 X162.932 Y58.336 E5.00746
G1 X156.664 Y52.068 E5.84569
G1 X155.745 Y52.068 E5.93259
G1 X162.932 Y59.255 E6.89372
G1 X162.932 Y60.175 E6.98072
G1 X154.826 Y52.068 E8.06482
G1 X153.906 Y52.068 E8.15182
G1 X162.932 Y61.094 E9.35889
G1 X162.932 Y62.013 E9.44579
G1 X152.987 Y52.068 E10.77576
G1 X152.068 Y52.068 E10.86266
G1 X162.931 Y62.932 E12.31546
G1 X162.012 Y62.932 E12.40236
G1 X152.068 Y52.988 E13.73219
G1 X152.068 Y53.907 E13.81909
G1 X161.093 Y62.932 E15.02602
G1 X160.174 Y62.932 E15.11292
G1 X152.068 Y54.826 E16.19695
G1 X152.068 Y55.745 E16.28385
G1 X159.255 Y62.932 E17.24498
G1 X158.336 Y62.932 E17.33188
G1 X152.068 Y56.664 E18.17011
G1 X152.068 Y57.583 E18.25701
G1 X157.417 Y62.932 E18.97234
G1 X156.498 Y62.932 E19.05924
G1 X152.068 Y58.502 E19.65167
G1 X152.068 Y59.421 E19.73857
G1 X155.579 Y62.932 E20.2081
G1 X154.66 Y62.932 E20.295
G1 X152.068 Y60.34 E20.64163
G1 X152.068 Y61.259 E20.72853
G1 X153.741 Y62.932 E20.95226
G1 X152.822 Y62.932 E21.03916
G1 X151.787 Y61.897 E21.17757
G1 E19.17757 F2400
G92 E0
G1 X151.787 Y61.897 F7800
G92 E0
G1 X198.4 Y63.4
G1 E2 F2400
;TYPE:Perimeter
;WIDTH:0.7
G1 F1800
G1 X186.6 Y63.4 E3.07297
G1 X186.6 Y51.6 E4.14594
G1 X198.4 Y51.6 E5.21891
G1 X198.4 Y57.5 E5.75539
G1 X198.4 Y63.34 E6.28642
G1 X198.4 Y63.34 F7800
G1 X199.025 Y64.025
G1 F1800
G1 X185.975 Y64.025 E7.47305
G1 X185.975 Y50.975 E8.65968
G1 X199.025 Y50.975 E9.84631
G1 X199.025 Y57.5 E10.43963
G1 X199.025 Y63.965 E11.02749
G1 X199.025 Y63.965 F7800
G1 X199.65 Y64.65
;TYPE:External perimeter
G1 F1800
G1 X185.35 Y64.65 E12.32778
G1 X185.35 Y50.35 E13.62807
G1 X199.65 Y50.35 E14.92836
G1 X199.65 Y57.5 E15.57851
G1 X199.65 Y64.59 E16.2232
G1 X199.254 Y64.649 F7800
G1 E14.2232 F2400
G92 E0
G1 X198.213 Y53.103 F7800
G1 E2 F2400
;TYPE:Solid infill
;WIDTH:0.72497
G1 F1800
G1 X197.178 Y52.068 E2.13841
G1 X196.259 Y52.068 E2.22531
G1 X197.932 Y53.741 E2.44904
G1 X197.932 Y54.66 E2.53594
G1 X195.34 Y52.068 E2.88257
G1 X194.421 Y52.068 E2.96947
G1 X197.932 Y55.579 E3.439
G1 X197.932 Y56.498 E3.5259
G1 X193.502 Y52.068 E4.11833
G1 X192.583 Y52.068 E4.20523
G1 X197.932 Y57.417 E4.92056
G1 X197.932 Y58.336 E5.00746
G1 X191.664 Y52.068 E5.84569
G1 X190.745 Y52.068 E5.93259
