; generated by PrusaSlicer 2.7.4 on 2025-03-31 at 22:10:34 UTC

; 

; external perimeters extrusion width = 0.45mm
; perimeters extrusion width = 0.45mm
; infill extrusion width = 0.45mm
; solid infill extrusion width = 0.45mm
; top infill extrusion width = 0.40mm
; first layer extrusion width = 0.70mm

M104 S200 ; set temperature
;TYPE:Custom
G28 ; home all axes
G1 Z5 F5000 ; lift nozzle
M109 S200 ; set temperature and wait for it to be reached
G21 ; set units to millimeters
G90 ; use absolute coordinates
M82 ; use absolute distances for extrusion
G92 E0
; Filament gcode
M107
;LAYER_CHANGE
;Z:0.35
;HEIGHT:0.35
G1 E-2 F2400
G1 Z.35 F7800
G1 X44.915 Y45.753
G1 E0 F2400
;TYPE:Skirt/Brim
;WIDTH:0.7
G1 F1800
G1 X46.668 Y44.274 E.20855
G1 X48.82 Y43.481 E.41709
G1 X50 Y43.375 E.52482
G1 X68 Y43.375 E2.16155
G1 X70.259 Y43.772 E2.37011
G1 X72.247 Y44.915 E2.57863
G1 X73.726 Y46.668 E2.78718
G1 X74.519 Y48.82 E2.99572
G1 X74.625 Y50 E3.10345
G1 X74.625 Y80.4 E5.86771
G1 X74.228 Y82.659 E6.07627
G1 X73.085 Y84.647 E6.28479
G1 X71.332 Y86.126 E6.49334
G1 X69.18 Y86.919 E6.70188
G1 X68 Y87.025 E6.80961
G1 X50 Y87.025 E8.44634
G1 X47.741 Y86.628 E8.6549
G1 X45.753 Y85.485 E8.86342
G1 X44.274 Y83.732 E9.07197
G1 X43.481 Y81.58 E9.28051
G1 X43.375 Y80.4 E9.38824
G1 X43.375 Y50 E12.1525
G1 X43.772 Y47.741 E12.36106
G1 X44.886 Y45.805 E12.56416
G1 E10.56416 F2400
G92 E0
G1 X44.886 Y45.805 F7800
G92 E0
G1 X66.4 Y78.8
G1 E2 F2400
;TYPE:Perimeter
;WIDTH:0.7
G1 F1800
G1 X51.6 Y78.8 E3.34576
G1 X51.6 Y51.6 E5.81904
G1 X66.4 Y51.6 E7.1648
G1 X66.4 Y59 E7.83768
G1 X66.4 Y78.74 E9.63263
G1 X66.4 Y78.74 F7800
G1 X67.025 Y79.425
G1 F1800
G1 X50.975 Y79.425 E11.09205
G1 X50.975 Y50.975 E13.67899
G1 X67.025 Y50.975 E15.13841
G1 X67.025 Y59 E15.86812
G1 X67.025 Y79.365 E17.7199
G1 X67.025 Y79.365 F7800
G1 X67.65 Y80.05
;TYPE:External perimeter
G1 F1800
G1 X50.35 Y80.05 E19.29298
G1 X50.35 Y50.35 E21.99359
G1 X67.65 Y50.35 E23.56667
G1 X67.65 Y59 E24.35321
G1 X67.65 Y79.99 E26.26182
G1 X67.254 Y80.049 F7800
G1 E24.26182 F2400
G92 E0
G1 X64.926 Y51.787 F7800
G1 E2 F2400
;TYPE:Solid infill
;WIDTH:0.711138
G1 F1800
G1 X65.932 Y52.793 E2.13167
G1 X65.932 Y53.692 E2.21487
G1 X64.308 Y52.068 E2.42743
G1 X63.408 Y52.068 E2.51073
G1 X65.932 Y54.592 E2.84109
G1 X65.932 Y55.491 E2.92429
G1 X62.509 Y52.068 E3.37231
G1 X61.609 Y52.068 E3.45561
G1 X65.932 Y56.391 E4.02143
G1 X65.932 Y57.29 E4.10463
G1 X60.71 Y52.068 E4.78812
G1 X59.81 Y52.068 E4.87142
G1 X65.932 Y58.19 E5.6727
G1 X65.932 Y59.089 E5.7559
G1 X58.911 Y52.068 E6.67485
G1 X58.011 Y52.068 E6.75815
G1 X65.932 Y59.989 E7.7949
G1 X65.932 Y60.888 E7.8781
G1 X57.112 Y52.068 E9.03251
G1 X56.212 Y52.068 E9.11581
G1 X65.932 Y61.788 E10.38802
G1 X65.932 Y62.687 E10.47122
G1 X55.313 Y52.068 E11.8611
G1 X54.413 Y52.068 E11.9444
G1 X65.932 Y63.587 E13.45207
G1 X65.932 Y64.486 E13.53527
G1 X53.514 Y52.068 E15.16061
G1 X52.614 Y52.068 E15.24391
G1 X65.932 Y65.386 E16.98705
G1 X65.932 Y66.285 E17.07025
G1 X52.068 Y52.422 E18.88479
G1 X52.068 Y53.321 E18.96799
G1 X65.932 Y67.184 E20.78253
G1 X65.932 Y68.084 E20.86583
G1 X52.068 Y54.221 E22.68037
G1 X52.068 Y55.12 E22.76357
G1 X65.932 Y68.983 E24.57811
G1 X65.932 Y69.883 E24.66141
G1 X52.068 Y56.02 E26.47595
G1 X52.068 Y56.919 E26.55915
G1 X65.932 Y70.782 E28.37369
G1 X65.932 Y71.682 E28.45699
G1 X52.068 Y57.819 E30.27153
G1 X52.068 Y58.718 E30.35473
G1 X65.932 Y72.581 E32.16927
G1 X65.932 Y73.481 E32.25257
G1 X52.068 Y59.618 E34.06711
G1 X52.068 Y60.517 E34.15031
G1 X65.932 Y74.38 E35.96485
G1 X65.932 Y75.28 E36.04815
G1 X52.068 Y61.417 E37.86269
G1 X52.068 Y62.316 E37.94589
G1 X65.932 Y76.179 E39.76043
G1 X65.932 Y77.079 E39.84373
G1 X52.068 Y63.216 E41.65827
G1 X52.068 Y64.115 E41.74147
G1 X65.932 Y77.978 E43.55601
G1 X65.932 Y78.332 E43.58877
G1 X65.385 Y78.332 E43.63939
G1 X52.068 Y65.015 E45.3824
G1 X52.068 Y65.914 E45.4656
G1 X64.486 Y78.332 E47.09094
G1 X63.586 Y78.332 E47.17424
G1 X52.068 Y66.814 E48.68178
G1 X52.068 Y67.713 E48.76498
G1 X62.687 Y78.332 E50.15486
G1 X61.788 Y78.332 E50.23806
G1 X52.068 Y68.613 E51.5102
G1 X52.068 Y69.512 E51.5934
G1 X60.888 Y78.332 E52.74781
G1 X59.989 Y78.332 E52.83101
G1 X52.068 Y70.411 E53.86776
G1 X52.068 Y71.311 E53.95106
G1 X59.089 Y78.332 E54.87001
G1 X58.19 Y78.332 E54.95321
G1 X52.068 Y72.21 E55.75449
G1 X52.068 Y73.11 E55.83779
G1 X57.29 Y78.332 E56.52128
G1 X56.391 Y78.332 E56.60448
G1 X52.068 Y74.009 E57.1703
G1 X52.068 Y74.909 E57.2536
G1 X55.491 Y78.332 E57.70162
G1 X54.592 Y78.332 E57.78482
G1 X52.068 Y75.808 E58.11518
G1 X52.068 Y76.708 E58.19848
G1 X53.692 Y78.332 E58.41104
G1 X52.793 Y78.332 E58.49424
G1 X51.787 Y77.326 E58.62591
;LAYER_CHANGE
;Z:0.65
;HEIGHT:0.3
G1 Z.65 F7800
G1 E56.62591 F2400
G92 E0
G1 X51.787 Y77.326 Z.65 F7800
G1 X67.004 Y79.404
G1 E2 F2400
G92 E0
;TYPE:Perimeter
;WIDTH:0.45
G1 F3600
G1 X50.996 Y79.404 E.76993
G1 X50.996 Y50.996 E2.13626
G1 X67.004 Y50.996 E2.90619
G1 X67.004 Y59 E3.29115
G1 X67.004 Y79.344 E4.26963
G1 X67.004 Y79.344 F7800
G1 X67.389 Y79.789
G1 F3600
G1 X50.611 Y79.789 E5.07659
G1 X50.611 Y50.611 E6.47995
G1 X67.389 Y50.611 E7.28691
G1 X67.389 Y59 E7.69039
G1 X67.389 Y79.729 E8.68738
G1 X67.389 Y79.729 F7800
G1 X67.775 Y80.175
;TYPE:External perimeter
G1 F1800
G1 X50.225 Y80.175 E9.53147
G1 X50.225 Y50.225 E10.97196
G1 X67.775 Y50.225 E11.81605
G1 X67.775 Y59 E12.2381
G1 X67.775 Y80.115 E13.25366
G1 X67.379 Y80.174 F7800
G1 E11.25366 F2400
G92 E0
G1 X51.39 Y51.317 F7800
G1 E2 F2400
;TYPE:Solid infill
;WIDTH:0.543559
G1 F1200
G1 X51.348 Y51.274 E2.00359
G1 X51.29 Y51.29 E2.00719
G1 X51.274 Y51.348 E2.01079
G1 X51.317 Y51.39 E2.01438
G1 X51.375 Y51.375 E2.01796
;WIDTH:0.45
G1 X51.991 Y51.285 E2.0479
G1 X51.162 Y52.128 E2.10477
;WIDTH:0.404381
G1 X51.091 Y52.109 E2.10789
G1 X51.11 Y52.18 E2.11101
G1 X51.151 Y52.169 E2.11281
;WIDTH:0.45
G1 X51.285 Y52.536 E2.1316
G1 X52.536 Y51.285 E2.21669
G1 X53.081 Y51.285 E2.2429
G1 X51.285 Y53.081 E2.36506
G1 X51.285 Y53.627 E2.39132
G1 X53.627 Y51.285 E2.55062
G1 X54.172 Y51.285 E2.57683
G1 X51.285 Y54.172 E2.7732
G1 X51.285 Y54.717 E2.79941
G1 X54.717 Y51.285 E3.03285
G1 X55.263 Y51.285 E3.05911
G1 X51.285 Y55.263 E3.32969
G1 X51.285 Y55.808 E3.3559
G1 X55.808 Y51.285 E3.66355
G1 X56.353 Y51.285 E3.68976
G1 X51.285 Y56.353 E4.03448
G1 X51.285 Y56.899 E4.06074
G1 X56.899 Y51.285 E4.4426
G1 X57.444 Y51.285 E4.46881
G1 X51.285 Y57.444 E4.88774
G1 X51.285 Y57.989 E4.91395
G1 X57.989 Y51.285 E5.36995
G1 X58.535 Y51.285 E5.39621
G1 X51.285 Y58.535 E5.88935
G1 X51.285 Y59.08 E5.91556
G1 X59.08 Y51.285 E6.44577
G1 X59.625 Y51.285 E6.47198
G1 X51.285 Y59.625 E7.03926
G1 X51.285 Y60.171 E7.06552
G1 X60.171 Y51.285 E7.66993
G1 X60.716 Y51.285 E7.69614
G1 X51.285 Y60.716 E8.33762
G1 X51.285 Y61.261 E8.36383
G1 X61.261 Y51.285 E9.04239
G1 X61.807 Y51.285 E9.06865
G1 X51.285 Y61.807 E9.78434
G1 X51.285 Y62.352 E9.81055
G1 X62.352 Y51.285 E10.56331
G1 X62.897 Y51.285 E10.58952
G1 X51.285 Y62.897 E11.37935
G1 X51.285 Y63.443 E11.40561
G1 X63.443 Y51.285 E12.23258
G1 X63.988 Y51.285 E12.25879
G1 X51.285 Y63.988 E13.12283
G1 X51.285 Y64.534 E13.14909
G1 X64.534 Y51.285 E14.05027
G1 X65.079 Y51.285 E14.07648
G1 X51.285 Y65.079 E15.01473
G1 X51.285 Y65.624 E15.04094
G1 X65.624 Y51.285 E16.01626
G1 X66.17 Y51.285 E16.04252
G1 X51.285 Y66.17 E17.05498
G1 X51.285 Y66.715 E17.08119
G1 X66.715 Y51.286 E18.13069
G1 X66.715 Y51.831 E18.1569
G1 X51.285 Y67.26 E19.2064
G1 X51.285 Y67.806 E19.23266
G1 X66.715 Y52.377 E20.28216
G1 X66.715 Y52.922 E20.30837
G1 X51.285 Y68.351 E21.35787
G1 X51.285 Y68.896 E21.38408
G1 X66.715 Y53.467 E22.43358
G1 X66.715 Y54.013 E22.45984
G1 X51.285 Y69.442 E23.50934
G1 X51.285 Y69.987 E23.53555
G1 X66.715 Y54.558 E24.58505
G1 X66.715 Y55.103 E24.61126
G1 X51.285 Y70.532 E25.66076
G1 X51.285 Y71.078 E25.68702
G1 X66.715 Y55.649 E26.73652
G1 X66.715 Y56.194 E26.76273
G1 X51.285 Y71.623 E27.81223
G1 X51.285 Y72.168 E27.83844
G1 X66.715 Y56.739 E28.88794
G1 X66.715 Y57.285 E28.9142
G1 X51.285 Y72.714 E29.9637
G1 X51.285 Y73.259 E29.98991
G1 X66.715 Y57.83 E31.03941
G1 X66.715 Y58.375 E31.06562
G1 X51.285 Y73.804 E32.11512
G1 X51.285 Y74.35 E32.14138
G1 X66.715 Y58.921 E33.19088
G1 X66.715 Y59.466 E33.21709
G1 X51.285 Y74.895 E34.26659
G1 X51.285 Y75.44 E34.2928
G1 X66.715 Y60.011 E35.3423
G1 X66.715 Y60.557 E35.36856
G1 X51.285 Y75.986 E36.41806
G1 X51.285 Y76.531 E36.44427
G1 X66.715 Y61.102 E37.49377
G1 X66.715 Y61.647 E37.51998
G1 X51.285 Y77.077 E38.56951
G1 X51.285 Y77.622 E38.59572
G1 X66.715 Y62.193 E39.64522
G1 X66.715 Y62.738 E39.67143
G1 X51.285 Y78.167 E40.72093
G1 X51.285 Y78.713 E40.74719
G1 X66.715 Y63.283 E41.79672
G1 X66.715 Y63.829 E41.82298
G1 X51.429 Y79.115 E42.86271
G1 X51.225 Y79.205 E42.87343
;WIDTH:0.404381
G1 X51.154 Y79.186 E42.87655
G1 X51.173 Y79.257 E42.87967
G1 X51.214 Y79.246 E42.88147
G1 X51.214 Y79.246 F7800
G1 X51.974 Y79.115
;WIDTH:0.45
G1 F1200
G1 X66.715 Y64.374 E43.88413
G1 X66.715 Y64.92 E43.91039
G1 X52.52 Y79.115 E44.87592
G1 X53.065 Y79.115 E44.90213
G1 X66.715 Y65.465 E45.83059
G1 X66.715 Y66.01 E45.8568
G1 X53.61 Y79.115 E46.74819
G1 X54.156 Y79.115 E46.77445
G1 X66.715 Y66.556 E47.6287
G1 X66.715 Y67.101 E47.65491
G1 X54.701 Y79.115 E48.47209
G1 X55.246 Y79.115 E48.4983
G1 X66.715 Y67.646 E49.27841
G1 X66.715 Y68.192 E49.30467
G1 X55.792 Y79.115 E50.04764
G1 X56.337 Y79.115 E50.07385
G1 X66.715 Y68.737 E50.77975
G1 X66.715 Y69.282 E50.80596
G1 X56.882 Y79.115 E51.47479
G1 X57.428 Y79.115 E51.50105
G1 X66.715 Y69.828 E52.13274
G1 X66.715 Y70.373 E52.15895
G1 X57.973 Y79.115 E52.75357
G1 X58.518 Y79.115 E52.77978
G1 X66.715 Y70.918 E53.33733
G1 X66.715 Y71.464 E53.36359
G1 X59.064 Y79.115 E53.884
G1 X59.609 Y79.115 E53.91021
G1 X66.715 Y72.009 E54.39355
G1 X66.715 Y72.554 E54.41976
G1 X60.154 Y79.115 E54.86603
G1 X60.7 Y79.115 E54.89229
G1 X66.715 Y73.1 E55.30142
G1 X66.715 Y73.645 E55.32763
G1 X61.245 Y79.115 E55.69969
G1 X61.79 Y79.115 E55.7259
G1 X66.715 Y74.19 E56.06089
G1 X66.715 Y74.736 E56.08715
G1 X62.336 Y79.115 E56.385
G1 X62.881 Y79.115 E56.41121
G1 X66.715 Y75.281 E56.67199
G1 X66.715 Y75.826 E56.6982
G1 X63.426 Y79.115 E56.92191
G1 X63.972 Y79.115 E56.94817
G1 X66.715 Y76.372 E57.13475
G1 X66.715 Y76.917 E57.16096
G1 X64.517 Y79.115 E57.31047
G1 X65.063 Y79.115 E57.33673
G1 X66.715 Y77.463 E57.4491
G1 X66.715 Y78.008 E57.47531
G1 X65.608 Y79.115 E57.55061
G1 X66.153 Y79.115 E57.57682
G1 X66.715 Y78.553 E57.61505
G1 X66.758 Y79.097 E57.6413
;WIDTH:0.459367
G1 X66.675 Y79.075 E57.64553
G1 X66.697 Y79.158 E57.64976
G1 X66.745 Y79.145 E57.65221
;LAYER_CHANGE
;Z:0.95
;HEIGHT:0.3
G1 Z.95 F7800
G1 X67.004 Y79.404
G92 E0
;TYPE:Perimeter
;WIDTH:0.45
G1 F3600
G1 X50.996 Y79.404 E.76993
G1 X50.996 Y50.996 E2.13626
G1 X67.004 Y50.996 E2.90619
G1 X67.004 Y59 E3.29115
G1 X67.004 Y79.344 E4.26963
G1 X67.004 Y79.344 F7800
G1 X67.389 Y79.789
G1 F3600
G1 X50.611 Y79.789 E5.07659
G1 X50.611 Y50.611 E6.47995
G1 X67.389 Y50.611 E7.28691
G1 X67.389 Y59 E7.69039
G1 X67.389 Y79.729 E8.68738
G1 X67.389 Y79.729 F7800
G1 X67.775 Y80.175
;TYPE:External perimeter
G1 F1800
G1 X50.225 Y80.175 E9.53147
G1 X50.225 Y50.225 E10.97196
G1 X67.775 Y50.225 E11.81605
G1 X67.775 Y59 E12.2381
G1 X67.775 Y80.115 E13.25366
G1 X67.379 Y80.174 F7800
G1 E11.25366 F2400
G92 E0
G1 X51.317 Y79.01 F7800
G1 E2 F2400
;TYPE:Solid infill
;WIDTH:0.543559
G1 F1200
G1 X51.274 Y79.052 E2.00359
G1 X51.29 Y79.11 E2.00719
G1 X51.348 Y79.126 E2.01079
G1 X51.39 Y79.083 E2.01438
G1 X51.375 Y79.025 E2.01796
;WIDTH:0.45
G1 X51.991 Y79.115 E2.0479
G1 X51.285 Y78.409 E2.09592
G1 X51.151 Y78.231 E2.10664
;WIDTH:0.404381
G1 X51.162 Y78.272 E2.10844
G1 X51.091 Y78.291 E2.11156
G1 X51.11 Y78.22 E2.11468
;WIDTH:0.45
G1 X51.285 Y77.864 E2.13376
G1 X52.536 Y79.115 E2.21885
G1 X53.081 Y79.115 E2.24506
G1 X51.285 Y77.319 E2.36722
G1 X51.285 Y76.773 E2.39348
G1 X53.627 Y79.115 E2.55278
G1 X54.172 Y79.115 E2.57899
G1 X51.285 Y76.228 E2.77536
G1 X51.285 Y75.683 E2.80157
G1 X54.717 Y79.115 E3.03501
G1 X55.263 Y79.115 E3.06127
G1 X51.285 Y75.137 E3.33185
G1 X51.285 Y74.592 E3.35806
G1 X55.808 Y79.115 E3.66571
G1 X56.353 Y79.115 E3.69192
G1 X51.285 Y74.047 E4.03664
G1 X51.285 Y73.501 E4.0629
G1 X56.899 Y79.115 E4.44476
G1 X57.444 Y79.115 E4.47097
G1 X51.285 Y72.956 E4.8899
G1 X51.285 Y72.411 E4.91611
G1 X57.989 Y79.115 E5.37211
G1 X58.535 Y79.115 E5.39837
G1 X51.285 Y71.865 E5.89151
G1 X51.285 Y71.32 E5.91772
G1 X59.08 Y79.115 E6.44793
G1 X59.625 Y79.115 E6.47414
G1 X51.285 Y70.775 E7.04142
G1 X51.285 Y70.229 E7.06768
G1 X60.171 Y79.115 E7.67209
G1 X60.716 Y79.115 E7.6983
G1 X51.285 Y69.684 E8.33978
G1 X51.285 Y69.139 E8.36599
G1 X61.261 Y79.115 E9.04455
G1 X61.807 Y79.115 E9.07081
G1 X51.285 Y68.593 E9.7865
G1 X51.285 Y68.048 E9.81271
G1 X62.352 Y79.115 E10.56547
G1 X62.897 Y79.115 E10.59168
G1 X51.285 Y67.503 E11.38151
G1 X51.285 Y66.957 E11.40777
G1 X63.443 Y79.115 E12.23474
G1 X63.988 Y79.115 E12.26095
G1 X51.285 Y66.412 E13.12499
G1 X51.285 Y65.866 E13.15125
G1 X64.534 Y79.115 E14.05243
G1 X65.079 Y79.115 E14.07864
G1 X51.285 Y65.321 E15.01689
G1 X51.285 Y64.776 E15.0431
G1 X65.624 Y79.115 E16.01842
G1 X66.17 Y79.115 E16.04468
G1 X51.285 Y64.23 E17.05714
G1 X51.285 Y63.685 E17.08335
G1 X66.715 Y79.114 E18.13285
G1 X66.715 Y78.569 E18.15906
G1 X51.285 Y63.14 E19.20856
G1 X51.285 Y62.594 E19.23482
G1 X66.715 Y78.023 E20.28432
G1 X66.715 Y77.478 E20.31053
G1 X51.285 Y62.049 E21.36003
G1 X51.285 Y61.504 E21.38624
G1 X66.715 Y76.933 E22.43574
G1 X66.715 Y76.387 E22.462
G1 X51.285 Y60.958 E23.5115
G1 X51.285 Y60.413 E23.53771
G1 X66.715 Y75.842 E24.58721
G1 X66.715 Y75.297 E24.61342
G1 X51.285 Y59.868 E25.66292
G1 X51.285 Y59.322 E25.68918
G1 X66.715 Y74.751 E26.73868
G1 X66.715 Y74.206 E26.76489
G1 X51.285 Y58.777 E27.81439
G1 X51.285 Y58.232 E27.8406
G1 X66.715 Y73.661 E28.8901
G1 X66.715 Y73.115 E28.91636
G1 X51.285 Y57.686 E29.96586
G1 X51.285 Y57.141 E29.99207
G1 X66.715 Y72.57 E31.04157
G1 X66.715 Y72.025 E31.06778
G1 X51.285 Y56.596 E32.11728
G1 X51.285 Y56.05 E32.14354
G1 X66.715 Y71.479 E33.19304
G1 X66.715 Y70.934 E33.21925
G1 X51.285 Y55.505 E34.26875
G1 X51.285 Y54.96 E34.29496
G1 X66.715 Y70.389 E35.34446
G1 X66.715 Y69.843 E35.37072
G1 X51.285 Y54.414 E36.42022
G1 X51.285 Y53.869 E36.44643
G1 X66.715 Y69.298 E37.49593
G1 X66.715 Y68.753 E37.52214
G1 X51.285 Y53.323 E38.57167
G1 X51.285 Y52.778 E38.59788
G1 X66.715 Y68.207 E39.64738
G1 X66.715 Y67.662 E39.67359
G1 X51.285 Y52.233 E40.72309
G1 X51.285 Y51.687 E40.74935
G1 X66.715 Y67.117 E41.79888
G1 X66.715 Y66.571 E41.82514
G1 X51.429 Y51.285 E42.86487
G1 X51.214 Y51.154 E42.87698
;WIDTH:0.404381
G1 X51.225 Y51.195 E42.87878
G1 X51.154 Y51.214 E42.8819
G1 X51.173 Y51.143 E42.88502
G1 X51.173 Y51.143 F7800
G1 X51.974 Y51.285
;WIDTH:0.45
G1 F1200
G1 X66.715 Y66.026 E43.88768
G1 X66.715 Y65.48 E43.91394
G1 X52.52 Y51.285 E44.87947
G1 X53.065 Y51.285 E44.90568
G1 X66.715 Y64.935 E45.83414
G1 X66.715 Y64.39 E45.86035
G1 X53.61 Y51.285 E46.75174
G1 X54.156 Y51.285 E46.778
G1 X66.715 Y63.844 E47.63225
G1 X66.715 Y63.299 E47.65846
G1 X54.701 Y51.285 E48.47564
G1 X55.246 Y51.285 E48.50185
G1 X66.715 Y62.754 E49.28196
G1 X66.715 Y62.208 E49.30822
G1 X55.792 Y51.285 E50.05119
G1 X56.337 Y51.285 E50.0774
G1 X66.715 Y61.663 E50.7833
G1 X66.715 Y61.118 E50.80951
G1 X56.882 Y51.285 E51.47834
G1 X57.428 Y51.285 E51.5046
G1 X66.715 Y60.572 E52.13629
G1 X66.715 Y60.027 E52.1625
G1 X57.973 Y51.285 E52.75712
G1 X58.518 Y51.285 E52.78333
G1 X66.715 Y59.482 E53.34088
G1 X66.715 Y58.936 E53.36714
G1 X59.064 Y51.285 E53.88755
G1 X59.609 Y51.285 E53.91376
G1 X66.715 Y58.391 E54.3971
G1 X66.715 Y57.846 E54.42331
G1 X60.154 Y51.285 E54.86958
G1 X60.7 Y51.285 E54.89584
G1 X66.715 Y57.3 E55.30497
G1 X66.715 Y56.755 E55.33118
G1 X61.245 Y51.285 E55.70324
G1 X61.79 Y51.285 E55.72945
G1 X66.715 Y56.21 E56.06444
G1 X66.715 Y55.664 E56.0907
G1 X62.336 Y51.285 E56.38855
G1 X62.881 Y51.285 E56.41476
G1 X66.715 Y55.119 E56.67554
G1 X66.715 Y54.574 E56.70175
G1 X63.426 Y51.285 E56.92546
G1 X63.972 Y51.285 E56.95172
G1 X66.715 Y54.028 E57.1383
G1 X66.715 Y53.483 E57.16451
G1 X64.517 Y51.285 E57.31402
