; generated by PrusaSlicer 2.7.4 on 2025-03-31 at 17:02:13 UTC

; 

; external perimeters extrusion width = 0.45mm
; perimeters extrusion width = 0.45mm
; infill extrusion width = 0.45mm
; solid infill extrusion width = 0.45mm
; top infill extrusion width = 0.40mm
; first layer extrusion width = 0.70mm

M104 S200 ; set temperature
;TYPE:Custom
G28 ; home all axes
G1 Z5 F5000 ; lift nozzle
M109 S200 ; set temperature and wait for it to be reached
G21 ; set units to millimeters
G90 ; use absolute coordinates
M82 ; use absolute distances for extrusion
G92 E0
; Filament gcode
M107
;LAYER_CHANGE
;Z:0.35
;HEIGHT:0.35
G1 E-2 F2400
G1 Z.35 F7800
G1 X85.915 Y80.553
G1 E0 F2400
;TYPE:Skirt/Brim
;WIDTH:0.7
G1 F1800
G1 X87.668 Y79.074 E.20855
G1 X89.82 Y78.281 E.41709
G1 X91 Y78.175 E.52482
G1 X109 Y78.175 E2.16155
G1 X111.259 Y78.572 E2.37011
G1 X113.247 Y79.715 E2.57863
G1 X114.726 Y81.468 E2.78718
G1 X115.519 Y83.62 E2.99572
G1 X115.625 Y84.8 E3.10345
G1 X115.625 Y115.2 E5.86771
G1 X115.228 Y117.459 E6.07627
G1 X114.085 Y119.447 E6.28479
G1 X112.332 Y120.926 E6.49334
G1 X110.18 Y121.719 E6.70188
G1 X109 Y121.825 E6.80961
G1 X91 Y121.825 E8.44634
G1 X88.741 Y121.428 E8.6549
G1 X86.753 Y120.285 E8.86342
G1 X85.274 Y118.532 E9.07197
G1 X84.481 Y116.38 E9.28051
G1 X84.375 Y115.2 E9.38824
G1 X84.375 Y84.8 E12.1525
G1 X84.772 Y82.541 E12.36106
G1 X85.886 Y80.605 E12.56416
G1 E10.56416 F2400
G92 E0
G1 X85.886 Y80.605 F7800
G92 E0
G1 X107.4 Y113.6
G1 E2 F2400
;TYPE:Perimeter
;WIDTH:0.7
G1 F1800
G1 X92.6 Y113.6 E3.34576
G1 X92.6 Y86.4 E5.81904
G1 X107.4 Y86.4 E7.1648
G1 X107.4 Y93.8 E7.83768
G1 X107.4 Y113.54 E9.63263
G1 X107.4 Y113.54 F7800
G1 X108.025 Y114.225
G1 F1800
G1 X91.975 Y114.225 E11.09205
G1 X91.975 Y85.775 E13.67899
G1 X108.025 Y85.775 E15.13841
G1 X108.025 Y93.8 E15.86812
G1 X108.025 Y114.165 E17.7199
G1 X108.025 Y114.165 F7800
G1 X108.65 Y114.85
;TYPE:External perimeter
G1 F1800
G1 X91.35 Y114.85 E19.29298
G1 X91.35 Y85.15 E21.99359
G1 X108.65 Y85.15 E23.56667
G1 X108.65 Y93.8 E24.35321
G1 X108.65 Y114.79 E26.26182
G1 X108.254 Y114.849 F7800
G1 E24.26182 F2400
G92 E0
G1 X107.213 Y87.874 F7800
G1 E2 F2400
;TYPE:Solid infill
;WIDTH:0.711138
G1 F1800
G1 X106.207 Y86.868 E2.13167
G1 X105.308 Y86.868 E2.21487
G1 X106.932 Y88.492 E2.42743
G1 X106.932 Y89.392 E2.51073
G1 X104.408 Y86.868 E2.84109
G1 X103.509 Y86.868 E2.92429
G1 X106.932 Y90.291 E3.37231
G1 X106.932 Y91.191 E3.45561
G1 X102.609 Y86.868 E4.02143
G1 X101.71 Y86.868 E4.10463
G1 X106.932 Y92.09 E4.78812
G1 X106.932 Y92.99 E4.87142
G1 X100.81 Y86.868 E5.6727
G1 X99.911 Y86.868 E5.7559
G1 X106.932 Y93.889 E6.67485
G1 X106.932 Y94.789 E6.75815
G1 X99.011 Y86.868 E7.7949
G1 X98.112 Y86.868 E7.8781
G1 X106.932 Y95.688 E9.03251
G1 X106.932 Y96.588 E9.11581
G1 X97.212 Y86.868 E10.38802
G1 X96.313 Y86.868 E10.47122
G1 X106.932 Y97.487 E11.8611
G1 X106.932 Y98.387 E11.9444
G1 X95.413 Y86.868 E13.45207
G1 X94.514 Y86.868 E13.53527
G1 X106.932 Y99.286 E15.16061
G1 X106.932 Y100.186 E15.24391
G1 X93.614 Y86.868 E16.98705
G1 X93.068 Y86.868 E17.03758
G1 X93.068 Y87.222 E17.07034
G1 X106.932 Y101.085 E18.88488
G1 X106.932 Y101.984 E18.96808
G1 X93.068 Y88.121 E20.78262
G1 X93.068 Y89.021 E20.86592
G1 X106.932 Y102.884 E22.68046
G1 X106.932 Y103.783 E22.76366
G1 X93.068 Y89.92 E24.5782
G1 X93.068 Y90.82 E24.6615
G1 X106.932 Y104.683 E26.47604
G1 X106.932 Y105.582 E26.55924
G1 X93.068 Y91.719 E28.37378
G1 X93.068 Y92.619 E28.45708
G1 X106.932 Y106.482 E30.27162
G1 X106.932 Y107.381 E30.35482
G1 X93.068 Y93.518 E32.16936
G1 X93.068 Y94.418 E32.25266
G1 X106.932 Y108.281 E34.0672
G1 X106.932 Y109.18 E34.1504
G1 X93.068 Y95.317 E35.96494
G1 X93.068 Y96.217 E36.04824
G1 X106.932 Y110.08 E37.86278
G1 X106.932 Y110.979 E37.94598
G1 X93.068 Y97.116 E39.76052
G1 X93.068 Y98.016 E39.84382
G1 X106.932 Y111.879 E41.65836
G1 X106.932 Y112.778 E41.74156
G1 X93.068 Y98.915 E43.5561
G1 X93.068 Y99.815 E43.6394
G1 X106.385 Y113.132 E45.38241
G1 X105.486 Y113.132 E45.46561
G1 X93.068 Y100.714 E47.09095
G1 X93.068 Y101.614 E47.17425
G1 X104.586 Y113.132 E48.68179
G1 X103.687 Y113.132 E48.76499
G1 X93.068 Y102.513 E50.15487
G1 X93.068 Y103.413 E50.23817
G1 X102.788 Y113.132 E51.51031
G1 X101.888 Y113.132 E51.59361
G1 X93.068 Y104.312 E52.74802
G1 X93.068 Y105.211 E52.83122
G1 X100.989 Y113.132 E53.86797
G1 X100.089 Y113.132 E53.95127
G1 X93.068 Y106.111 E54.87022
G1 X93.068 Y107.01 E54.95342
G1 X99.19 Y113.132 E55.7547
G1 X98.29 Y113.132 E55.838
G1 X93.068 Y107.91 E56.52149
G1 X93.068 Y108.809 E56.60469
G1 X97.391 Y113.132 E57.17051
G1 X96.491 Y113.132 E57.25381
G1 X93.068 Y109.709 E57.70183
G1 X93.068 Y110.608 E57.78503
G1 X95.592 Y113.132 E58.11539
G1 X94.692 Y113.132 E58.19869
G1 X93.068 Y111.508 E58.41125
G1 X93.068 Y112.407 E58.49445
G1 X94.074 Y113.413 E58.62612
;LAYER_CHANGE
;Z:0.65
;HEIGHT:0.3
G1 Z.65 F7800
G1 E56.62612 F2400
G92 E0
G1 X94.074 Y113.413 Z.65 F7800
G1 X108.004 Y114.204
G1 E2 F2400
G92 E0
;TYPE:Perimeter
;WIDTH:0.45
G1 F3600
G1 X91.996 Y114.204 E.76993
G1 X91.996 Y85.796 E2.13626
G1 X108.004 Y85.796 E2.90619
G1 X108.004 Y93.8 E3.29115
G1 X108.004 Y114.144 E4.26963
G1 X108.004 Y114.144 F7800
G1 X108.389 Y114.589
G1 F3600
G1 X91.611 Y114.589 E5.07659
G1 X91.611 Y85.411 E6.47995
G1 X108.389 Y85.411 E7.28691
G1 X108.389 Y93.8 E7.69039
G1 X108.389 Y114.529 E8.68738
G1 X108.389 Y114.529 F7800
G1 X108.775 Y114.975
;TYPE:External perimeter
G1 F1800
G1 X91.225 Y114.975 E9.53147
G1 X91.225 Y85.025 E10.97196
G1 X108.775 Y85.025 E11.81605
G1 X108.775 Y93.8 E12.2381
G1 X108.775 Y114.915 E13.25366
G1 X108.379 Y114.974 F7800
G1 E11.25366 F2400
G92 E0
G1 X92.39 Y86.117 F7800
G1 E2 F2400
;TYPE:Solid infill
;WIDTH:0.543559
G1 F1200
G1 X92.348 Y86.074 E2.00359
G1 X92.29 Y86.09 E2.00719
G1 X92.274 Y86.148 E2.01079
G1 X92.317 Y86.19 E2.01438
G1 X92.375 Y86.175 E2.01796
;WIDTH:0.45
G1 X92.991 Y86.085 E2.0479
G1 X92.162 Y86.928 E2.10477
;WIDTH:0.404381
G1 X92.091 Y86.909 E2.10789
G1 X92.11 Y86.98 E2.11101
G1 X92.151 Y86.969 E2.11281
;WIDTH:0.45
G1 X92.285 Y87.336 E2.1316
G1 X93.536 Y86.085 E2.21669
G1 X94.081 Y86.085 E2.2429
G1 X92.285 Y87.881 E2.36506
G1 X92.285 Y88.427 E2.39132
G1 X94.627 Y86.085 E2.55062
G1 X95.172 Y86.085 E2.57683
G1 X92.285 Y88.972 E2.7732
G1 X92.285 Y89.517 E2.79941
G1 X95.717 Y86.085 E3.03285
G1 X96.263 Y86.085 E3.05911
G1 X92.285 Y90.063 E3.32969
G1 X92.285 Y90.608 E3.3559
G1 X96.808 Y86.085 E3.66355
G1 X97.353 Y86.085 E3.68976
G1 X92.285 Y91.153 E4.03448
G1 X92.285 Y91.699 E4.06074
G1 X97.899 Y86.085 E4.4426
G1 X98.444 Y86.085 E4.46881
G1 X92.285 Y92.244 E4.88774
G1 X92.285 Y92.789 E4.91395
G1 X98.989 Y86.085 E5.36995
G1 X99.535 Y86.085 E5.39621
G1 X92.285 Y93.335 E5.88935
G1 X92.285 Y93.88 E5.91556
G1 X100.08 Y86.085 E6.44577
G1 X100.625 Y86.085 E6.47198
G1 X92.285 Y94.425 E7.03926
G1 X92.285 Y94.971 E7.06552
G1 X101.171 Y86.085 E7.66993
G1 X101.716 Y86.085 E7.69614
G1 X92.285 Y95.516 E8.33762
G1 X92.285 Y96.061 E8.36383
G1 X102.261 Y86.085 E9.04239
G1 X102.807 Y86.085 E9.06865
G1 X92.285 Y96.607 E9.78434
G1 X92.285 Y97.152 E9.81055
G1 X103.352 Y86.085 E10.56331
G1 X103.897 Y86.085 E10.58952
G1 X92.285 Y97.697 E11.37935
G1 X92.285 Y98.243 E11.40561
G1 X104.443 Y86.085 E12.23258
G1 X104.988 Y86.085 E12.25879
G1 X92.285 Y98.788 E13.12283
G1 X92.285 Y99.334 E13.14909
G1 X105.534 Y86.085 E14.05027
G1 X106.079 Y86.085 E14.07648
G1 X92.285 Y99.879 E15.01473
G1 X92.285 Y100.424 E15.04094
G1 X106.624 Y86.085 E16.01626
G1 X107.17 Y86.085 E16.04252
G1 X92.285 Y100.97 E17.05498
G1 X92.285 Y101.515 E17.08119
G1 X107.715 Y86.086 E18.13069
G1 X107.715 Y86.631 E18.1569
G1 X92.285 Y102.06 E19.2064
G1 X92.285 Y102.606 E19.23266
G1 X107.715 Y87.177 E20.28216
G1 X107.715 Y87.722 E20.30837
G1 X92.285 Y103.151 E21.35787
G1 X92.285 Y103.696 E21.38408
G1 X107.715 Y88.267 E22.43358
G1 X107.715 Y88.813 E22.45984
G1 X92.285 Y104.242 E23.50934
G1 X92.285 Y104.787 E23.53555
G1 X107.715 Y89.358 E24.58505
G1 X107.715 Y89.903 E24.61126
G1 X92.285 Y105.332 E25.66076
G1 X92.285 Y105.878 E25.68702
G1 X107.715 Y90.449 E26.73652
G1 X107.715 Y90.994 E26.76273
G1 X92.285 Y106.423 E27.81223
G1 X92.285 Y106.968 E27.83844
G1 X107.715 Y91.539 E28.88794
G1 X107.715 Y92.085 E28.9142
G1 X92.285 Y107.514 E29.9637
G1 X92.285 Y108.059 E29.98991
G1 X107.715 Y92.63 E31.03941
G1 X107.715 Y93.175 E31.06562
G1 X92.285 Y108.604 E32.11512
G1 X92.285 Y109.15 E32.14138
G1 X107.715 Y93.721 E33.19088
G1 X107.715 Y94.266 E33.21709
G1 X92.285 Y109.695 E34.26659
G1 X92.285 Y110.24 E34.2928
G1 X107.715 Y94.811 E35.3423
G1 X107.715 Y95.357 E35.36856
G1 X92.285 Y110.786 E36.41806
G1 X92.285 Y111.331 E36.44427
G1 X107.715 Y95.902 E37.49377
G1 X107.715 Y96.447 E37.51998
G1 X92.285 Y111.877 E38.56951
G1 X92.285 Y112.422 E38.59572
G1 X107.715 Y96.993 E39.64522
G1 X107.715 Y97.538 E39.67143
G1 X92.285 Y112.967 E40.72093
G1 X92.285 Y113.513 E40.74719
G1 X107.715 Y98.083 E41.79672
G1 X107.715 Y98.629 E41.82298
G1 X92.429 Y113.915 E42.86271
G1 X92.225 Y114.005 E42.87343
;WIDTH:0.404381
G1 X92.154 Y113.986 E42.87655
G1 X92.173 Y114.057 E42.87967
G1 X92.214 Y114.046 E42.88147
G1 X92.214 Y114.046 F7800
G1 X92.974 Y113.915
;WIDTH:0.45
G1 F1200
G1 X107.715 Y99.174 E43.88413
G1 X107.715 Y99.72 E43.91039
G1 X93.52 Y113.915 E44.87592
G1 X94.065 Y113.915 E44.90213
G1 X107.715 Y100.265 E45.83059
G1 X107.715 Y100.81 E45.8568
G1 X94.61 Y113.915 E46.74819
G1 X95.156 Y113.915 E46.77445
G1 X107.715 Y101.356 E47.6287
G1 X107.715 Y101.901 E47.65491
G1 X95.701 Y113.915 E48.47209
G1 X96.246 Y113.915 E48.4983
G1 X107.715 Y102.446 E49.27841
G1 X107.715 Y102.992 E49.30467
G1 X96.792 Y113.915 E50.04764
G1 X97.337 Y113.915 E50.07385
G1 X107.715 Y103.537 E50.77975
G1 X107.715 Y104.082 E50.80596
G1 X97.882 Y113.915 E51.47479
G1 X98.428 Y113.915 E51.50105
G1 X107.715 Y104.628 E52.13274
G1 X107.715 Y105.173 E52.15895
G1 X98.973 Y113.915 E52.75357
G1 X99.518 Y113.915 E52.77978
G1 X107.715 Y105.718 E53.33733
G1 X107.715 Y106.264 E53.36359
G1 X100.064 Y113.915 E53.884
G1 X100.609 Y113.915 E53.91021
G1 X107.715 Y106.809 E54.39355
G1 X107.715 Y107.354 E54.41976
G1 X101.154 Y113.915 E54.86603
G1 X101.7 Y113.915 E54.89229
G1 X107.715 Y107.9 E55.30142
G1 X107.715 Y108.445 E55.32763
G1 X102.245 Y113.915 E55.69969
G1 X102.79 Y113.915 E55.7259
G1 X107.715 Y108.99 E56.06089
G1 X107.715 Y109.536 E56.08715
G1 X103.336 Y113.915 E56.385
G1 X103.881 Y113.915 E56.41121
G1 X107.715 Y110.081 E56.67199
G1 X107.715 Y110.626 E56.6982
G1 X104.426 Y113.915 E56.92191
G1 X104.972 Y113.915 E56.94817
G1 X107.715 Y111.172 E57.13475
G1 X107.715 Y111.717 E57.16096
G1 X105.517 Y113.915 E57.31047
G1 X106.063 Y113.915 E57.33673
G1 X107.715 Y112.263 E57.4491
G1 X107.715 Y112.808 E57.47531
G1 X106.608 Y113.915 E57.55061
G1 X107.153 Y113.915 E57.57682
G1 X107.715 Y113.353 E57.61505
G1 X107.758 Y113.897 E57.6413
;WIDTH:0.459365
G1 X107.675 Y113.875 E57.64553
G1 X107.697 Y113.958 E57.64976
G1 X107.745 Y113.945 E57.65221
;LAYER_CHANGE
;Z:0.95
;HEIGHT:0.3
G1 Z.95 F7800
G1 X108.004 Y114.204
G92 E0
;TYPE:Perimeter
;WIDTH:0.45
G1 F3600
G1 X91.996 Y114.204 E.76993
G1 X91.996 Y85.796 E2.13626
G1 X108.004 Y85.796 E2.90619
G1 X108.004 Y93.8 E3.29115
G1 X108.004 Y114.144 E4.26963
G1 X108.004 Y114.144 F7800
G1 X108.389 Y114.589
G1 F3600
G1 X91.611 Y114.589 E5.07659
G1 X91.611 Y85.411 E6.47995
G1 X108.389 Y85.411 E7.28691
G1 X108.389 Y93.8 E7.69039
G1 X108.389 Y114.529 E8.68738
G1 X108.389 Y114.529 F7800
G1 X108.775 Y114.975
;TYPE:External perimeter
G1 F1800
G1 X91.225 Y114.975 E9.53147
G1 X91.225 Y85.025 E10.97196
G1 X108.775 Y85.025 E11.81605
G1 X108.775 Y93.8 E12.2381
G1 X108.775 Y114.915 E13.25366
G1 X108.379 Y114.974 F7800
G1 E11.25366 F2400
G92 E0
G1 X92.317 Y113.81 F7800
G1 E2 F2400
;TYPE:Solid infill
;WIDTH:0.543559
G1 F1200
G1 X92.274 Y113.852 E2.00359
G1 X92.29 Y113.91 E2.00719
G1 X92.348 Y113.926 E2.01079
G1 X92.39 Y113.883 E2.01438
G1 X92.375 Y113.825 E2.01796
;WIDTH:0.45
G1 X92.991 Y113.915 E2.0479
G1 X92.285 Y113.209 E2.09592
G1 X92.151 Y113.031 E2.10664
;WIDTH:0.404381
G1 X92.162 Y113.072 E2.10844
G1 X92.091 Y113.091 E2.11156
G1 X92.11 Y113.02 E2.11468
;WIDTH:0.45
G1 X92.285 Y112.664 E2.13376
G1 X93.536 Y113.915 E2.21885
G1 X94.081 Y113.915 E2.24506
G1 X92.285 Y112.119 E2.36722
G1 X92.285 Y111.573 E2.39348
G1 X94.627 Y113.915 E2.55278
G1 X95.172 Y113.915 E2.57899
G1 X92.285 Y111.028 E2.77536
G1 X92.285 Y110.483 E2.80157
G1 X95.717 Y113.915 E3.03501
G1 X96.263 Y113.915 E3.06127
G1 X92.285 Y109.937 E3.33185
G1 X92.285 Y109.392 E3.35806
G1 X96.808 Y113.915 E3.66571
G1 X97.353 Y113.915 E3.69192
G1 X92.285 Y108.847 E4.03664
G1 X92.285 Y108.301 E4.0629
G1 X97.899 Y113.915 E4.44476
G1 X98.444 Y113.915 E4.47097
G1 X92.285 Y107.756 E4.8899
G1 X92.285 Y107.211 E4.91611
G1 X98.989 Y113.915 E5.37211
G1 X99.535 Y113.915 E5.39837
G1 X92.285 Y106.665 E5.89151
G1 X92.285 Y106.12 E5.91772
G1 X100.08 Y113.915 E6.44793
G1 X100.625 Y113.915 E6.47414
G1 X92.285 Y105.575 E7.04142
G1 X92.285 Y105.029 E7.06768
G1 X101.171 Y113.915 E7.67209
G1 X101.716 Y113.915 E7.6983
G1 X92.285 Y104.484 E8.33978
G1 X92.285 Y103.939 E8.36599
G1 X102.261 Y113.915 E9.04455
G1 X102.807 Y113.915 E9.07081
G1 X92.285 Y103.393 E9.7865
G1 X92.285 Y102.848 E9.81271
G1 X103.352 Y113.915 E10.56547
G1 X103.897 Y113.915 E10.59168
G1 X92.285 Y102.303 E11.38151
G1 X92.285 Y101.757 E11.40777
G1 X104.443 Y113.915 E12.23474
G1 X104.988 Y113.915 E12.26095
G1 X92.285 Y101.212 E13.12499
G1 X92.285 Y100.666 E13.15125
G1 X105.534 Y113.915 E14.05243
G1 X106.079 Y113.915 E14.07864
G1 X92.285 Y100.121 E15.01689
G1 X92.285 Y99.576 E15.0431
G1 X106.624 Y113.915 E16.01842
G1 X107.17 Y113.915 E16.04468
G1 X92.285 Y99.03 E17.05714
G1 X92.285 Y98.485 E17.08335
G1 X107.715 Y113.914 E18.13285
G1 X107.715 Y113.369 E18.15906
G1 X92.285 Y97.94 E19.20856
G1 X92.285 Y97.394 E19.23482
G1 X107.715 Y112.823 E20.28432
G1 X107.715 Y112.278 E20.31053
G1 X92.285 Y96.849 E21.36003
G1 X92.285 Y96.304 E21.38624
G1 X107.715 Y111.733 E22.43574
G1 X107.715 Y111.187 E22.462
G1 X92.285 Y95.758 E23.5115
G1 X92.285 Y95.213 E23.53771
G1 X107.715 Y110.642 E24.58721
G1 X107.715 Y110.097 E24.61342
G1 X92.285 Y94.668 E25.66292
G1 X92.285 Y94.122 E25.68918
G1 X107.715 Y109.551 E26.73868
G1 X107.715 Y109.006 E26.76489
G1 X92.285 Y93.577 E27.81439
G1 X92.285 Y93.032 E27.8406
G1 X107.715 Y108.461 E28.8901
G1 X107.715 Y107.915 E28.91636
G1 X92.285 Y92.486 E29.96586
G1 X92.285 Y91.941 E29.99207
G1 X107.715 Y107.37 E31.04157
G1 X107.715 Y106.825 E31.06778
G1 X92.285 Y91.396 E32.11728
G1 X92.285 Y90.85 E32.14354
G1 X107.715 Y106.279 E33.19304
G1 X107.715 Y105.734 E33.21925
G1 X92.285 Y90.305 E34.26875
G1 X92.285 Y89.76 E34.29496
G1 X107.715 Y105.189 E35.34446
G1 X107.715 Y104.643 E35.37072
G1 X92.285 Y89.214 E36.42022
G1 X92.285 Y88.669 E36.44643
G1 X107.715 Y104.098 E37.49593
G1 X107.715 Y103.553 E37.52214
G1 X92.285 Y88.123 E38.57167
G1 X92.285 Y87.578 E38.59788
G1 X107.715 Y103.007 E39.64738
G1 X107.715 Y102.462 E39.67359
G1 X92.285 Y87.033 E40.72309
G1 X92.285 Y86.487 E40.74935
G1 X107.715 Y101.917 E41.79888
G1 X107.715 Y101.371 E41.82514
G1 X92.429 Y86.085 E42.86487
G1 X92.214 Y85.954 E42.87698
;WIDTH:0.404381
G1 X92.225 Y85.995 E42.87878
G1 X92.154 Y86.014 E42.8819
G1 X92.173 Y85.943 E42.88502
G1 X92.173 Y85.943 F7800
G1 X92.974 Y86.085
;WIDTH:0.45
G1 F1200
G1 X107.715 Y100.826 E43.88768
G1 X107.715 Y100.28 E43.91394
G1 X93.52 Y86.085 E44.87947
G1 X94.065 Y86.085 E44.90568
G1 X107.715 Y99.735 E45.83414
G1 X107.715 Y99.19 E45.86035
G1 X94.61 Y86.085 E46.75174
G1 X95.156 Y86.085 E46.778
G1 X107.715 Y98.644 E47.63225
G1 X107.715 Y98.099 E47.65846
G1 X95.701 Y86.085 E48.47564
G1 X96.246 Y86.085 E48.50185
G1 X107.715 Y97.554 E49.28196
G1 X107.715 Y97.008 E49.30822
G1 X96.792 Y86.085 E50.05119
G1 X97.337 Y86.085 E50.0774
G1 X107.715 Y96.463 E50.7833
G1 X107.715 Y95.918 E50.80951
G1 X97.882 Y86.085 E51.47834
G1 X98.428 Y86.085 E51.5046
G1 X107.715 Y95.372 E52.13629
G1 X107.715 Y94.827 E52.1625
G1 X98.973 Y86.085 E52.75712
G1 X99.518 Y86.085 E52.78333
G1 X107.715 Y94.282 E53.34088
G1 X107.715 Y93.736 E53.36714
G1 X100.064 Y86.085 E53.88755
G1 X100.609 Y86.085 E53.91376
