; generated by PrusaSlicer 2.7.4 on 2025-03-31 at 12:03:47 UTC

; 

; external perimeters extrusion width = 0.45mm
; perimeters extrusion width = 0.45mm
; infill extrusion width = 0.45mm
; solid infill extrusion width = 0.45mm
; top infill extrusion width = 0.40mm
; first layer extrusion width = 0.70mm

M104 S200 ; set temperature
;TYPE:Custom
G28 ; home all axes
G1 Z5 F5000 ; lift nozzle
M109 S200 ; set temperature and wait for it to be reached
G21 ; set units to millimeters
G90 ; use absolute coordinates
M82 ; use absolute distances for extrusion
G92 E0
; Filament gcode
M107
;LAYER_CHANGE
;Z:0.35
;HEIGHT:0.35
G1 E-2 F2400
G1 Z.35 F7800
G1 X74.665 Y75.503
G1 E0 F2400
;TYPE:Skirt/Brim
;WIDTH:0.7
G1 F1800
G1 X76.418 Y74.024 E.20855
G1 X78.57 Y73.231 E.41709
G1 X79.75 Y73.125 E.52482
G1 X120.25 Y73.125 E4.20747
G1 X122.509 Y73.522 E4.41603
G1 X124.497 Y74.665 E4.62455
G1 X125.976 Y76.418 E4.8331
G1 X126.769 Y78.57 E5.04164
G1 X126.875 Y79.75 E5.14937
G1 X126.875 Y120.25 E8.83202
G1 X126.478 Y122.509 E9.04058
G1 X125.335 Y124.497 E9.2491
G1 X123.582 Y125.976 E9.45765
G1 X121.43 Y126.769 E9.66619
G1 X120.25 Y126.875 E9.77392
G1 X79.75 Y126.875 E13.45657
G1 X77.491 Y126.478 E13.66513
G1 X75.503 Y125.335 E13.87365
G1 X74.024 Y123.582 E14.0822
G1 X73.231 Y121.43 E14.29074
G1 X73.125 Y120.25 E14.39847
G1 X73.125 Y79.75 E18.08112
G1 X73.522 Y77.491 E18.28968
G1 X74.636 Y75.555 E18.49278
G1 E16.49278 F2400
G92 E0
G1 X74.636 Y75.555 F7800
G92 E0
G1 X118.65 Y118.65
G1 E2 F2400
;TYPE:Perimeter
;WIDTH:0.7
G1 F1800
G1 X81.35 Y118.65 E5.39167
G1 X81.35 Y81.35 E8.78334
G1 X118.65 Y81.35 E12.17501
G1 X118.65 Y100 E13.87085
G1 X118.65 Y118.59 E15.56123
G1 X118.65 Y118.59 F7800
G1 X119.275 Y119.275
G1 F1800
G1 X80.725 Y119.275 E19.06656
G1 X80.725 Y80.725 E22.57189
G1 X119.275 Y80.725 E26.07722
G1 X119.275 Y100 E27.82989
G1 X119.275 Y119.215 E29.5771
G1 X119.275 Y119.215 F7800
G1 X119.9 Y119.9
;TYPE:External perimeter
G1 F1800
G1 X80.1 Y119.9 E33.1961
G1 X80.1 Y80.1 E36.8151
G1 X119.9 Y80.1 E40.4341
G1 X119.9 Y100 E42.2436
G1 X119.9 Y119.84 E44.04764
G1 X119.504 Y119.899 F7800
G1 E42.04764 F2400
G92 E0
G1 X118.463 Y82.812 F7800
G1 E2 F2400
;TYPE:Solid infill
;WIDTH:0.705339
G1 F1800
G1 X117.469 Y81.818 E2.12891
G1 X116.578 Y81.818 E2.21062
G1 X118.182 Y83.422 E2.41865
G1 X118.182 Y84.313 E2.50036
G1 X115.687 Y81.818 E2.82394
G1 X114.796 Y81.818 E2.90565
G1 X118.182 Y85.204 E3.34479
G1 X118.182 Y86.096 E3.42659
G1 X113.904 Y81.818 E3.98141
G1 X113.013 Y81.818 E4.06312
G1 X118.182 Y86.987 E4.7335
G1 X118.182 Y87.878 E4.81521
G1 X112.122 Y81.818 E5.60115
G1 X111.231 Y81.818 E5.68286
G1 X118.182 Y88.769 E6.58435
G1 X118.182 Y89.661 E6.66615
G1 X110.339 Y81.818 E7.68333
G1 X109.448 Y81.818 E7.76504
G1 X118.182 Y90.552 E8.89777
G1 X118.182 Y91.443 E8.97948
G1 X108.557 Y81.818 E10.22777
G1 X107.665 Y81.818 E10.30957
G1 X118.182 Y92.335 E11.67355
G1 X118.182 Y93.226 E11.75526
G1 X106.774 Y81.818 E13.23479
G1 X105.883 Y81.818 E13.3165
G1 X118.182 Y94.117 E14.91159
G1 X118.182 Y95.008 E14.9933
G1 X104.992 Y81.818 E16.70394
G1 X104.1 Y81.818 E16.78574
G1 X118.182 Y95.9 E18.61207
G1 X118.182 Y96.791 E18.69378
G1 X103.209 Y81.818 E20.63567
G1 X102.318 Y81.818 E20.71738
G1 X118.182 Y97.682 E22.77482
G1 X118.182 Y98.574 E22.85662
G1 X101.426 Y81.818 E25.02975
G1 X100.535 Y81.818 E25.11146
G1 X118.182 Y99.465 E27.40014
G1 X118.182 Y100.356 E27.48185
G1 X99.644 Y81.818 E29.88609
G1 X98.753 Y81.818 E29.9678
G1 X118.182 Y101.247 E32.48759
G1 X118.182 Y102.139 E32.56939
G1 X97.861 Y81.818 E35.20487
G1 X96.97 Y81.818 E35.28658
G1 X118.182 Y103.03 E38.03762
G1 X118.182 Y103.921 E38.11933
G1 X96.079 Y81.818 E40.98592
G1 X95.188 Y81.818 E41.06763
G1 X118.182 Y104.812 E44.04978
G1 X118.182 Y105.704 E44.13158
G1 X94.296 Y81.818 E47.22941
G1 X93.405 Y81.818 E47.31112
G1 X118.182 Y106.595 E50.52451
G1 X118.182 Y107.486 E50.60622
G1 X92.514 Y81.818 E53.93517
G1 X91.622 Y81.818 E54.01697
G1 X118.182 Y108.378 E57.4616
G1 X118.182 Y109.269 E57.54331
G1 X90.731 Y81.818 E61.1035
G1 X89.84 Y81.818 E61.18521
G1 X118.182 Y110.16 E64.86095
G1 X118.182 Y111.051 E64.94266
G1 X88.949 Y81.818 E68.73396
G1 X88.057 Y81.818 E68.81576
G1 X118.182 Y111.943 E72.72275
G1 X118.182 Y112.834 E72.80446
G1 X87.166 Y81.818 E76.827
G1 X86.275 Y81.818 E76.90871
G1 X118.182 Y113.725 E81.04681
G1 X118.182 Y114.617 E81.12861
G1 X85.383 Y81.818 E85.38239
G1 X84.492 Y81.818 E85.4641
G1 X118.182 Y115.508 E89.83344
G1 X118.182 Y116.399 E89.91515
G1 X83.601 Y81.818 E94.40005
G1 X82.71 Y81.818 E94.48176
G1 X118.182 Y117.29 E99.08221
G1 X118.181 Y118.182 E99.16401
G1 X81.818 Y81.819 E103.88002
G1 X81.818 Y82.71 E103.96173
G1 X117.29 Y118.182 E108.56218
G1 X116.399 Y118.182 E108.64389
G1 X81.818 Y83.601 E113.12879
G1 X81.818 Y84.492 E113.2105
G1 X115.508 Y118.182 E117.57984
G1 X114.616 Y118.182 E117.66164
G1 X81.818 Y85.384 E121.91529
G1 X81.818 Y86.275 E121.997
G1 X113.725 Y118.182 E126.1351
G1 X112.834 Y118.182 E126.21681
G1 X81.818 Y87.166 E130.23935
G1 X81.818 Y88.057 E130.32106
G1 X111.943 Y118.182 E134.22805
G1 X111.051 Y118.182 E134.30985
G1 X81.818 Y88.949 E138.10115
G1 X81.818 Y89.84 E138.18286
G1 X110.16 Y118.182 E141.8586
G1 X109.269 Y118.182 E141.94031
G1 X81.818 Y90.731 E145.5005
G1 X81.818 Y91.623 E145.5823
G1 X108.377 Y118.182 E149.0268
G1 X107.486 Y118.182 E149.10851
G1 X81.818 Y92.514 E152.43746
G1 X81.818 Y93.405 E152.51917
G1 X106.595 Y118.182 E155.73256
G1 X105.704 Y118.182 E155.81427
G1 X81.818 Y94.296 E158.9121
G1 X81.818 Y95.188 E158.9939
G1 X104.812 Y118.182 E161.97605
G1 X103.921 Y118.182 E162.05776
G1 X81.818 Y96.079 E164.92435
G1 X81.818 Y96.97 E165.00606
G1 X103.03 Y118.182 E167.7571
G1 X102.139 Y118.182 E167.83881
G1 X81.818 Y97.861 E170.47429
G1 X81.818 Y98.753 E170.55609
G1 X101.247 Y118.182 E173.07588
G1 X100.356 Y118.182 E173.15759
G1 X81.818 Y99.644 E175.56183
G1 X81.818 Y100.535 E175.64354
G1 X99.465 Y118.182 E177.93222
G1 X98.573 Y118.182 E178.01402
G1 X81.818 Y101.427 E180.18702
G1 X81.818 Y102.318 E180.26873
G1 X97.682 Y118.182 E182.32617
G1 X96.791 Y118.182 E182.40788
G1 X81.818 Y103.209 E184.34977
G1 X81.818 Y104.1 E184.43148
G1 X95.9 Y118.182 E186.25781
G1 X95.008 Y118.182 E186.33961
G1 X81.818 Y104.992 E188.05025
G1 X81.818 Y105.883 E188.13196
G1 X94.117 Y118.182 E189.72705
G1 X93.226 Y118.182 E189.80876
G1 X81.818 Y106.774 E191.28829
G1 X81.818 Y107.666 E191.37009
G1 X92.334 Y118.182 E192.73394
G1 X91.443 Y118.182 E192.81565
G1 X81.818 Y108.557 E194.06394
G1 X81.818 Y109.448 E194.14565
G1 X90.552 Y118.182 E195.27838
G1 X89.661 Y118.182 E195.36009
G1 X81.818 Y110.339 E196.37727
G1 X81.818 Y111.231 E196.45907
G1 X88.769 Y118.182 E197.36056
G1 X87.878 Y118.182 E197.44227
G1 X81.818 Y112.122 E198.22821
G1 X81.818 Y113.013 E198.30992
G1 X86.987 Y118.182 E198.9803
G1 X86.096 Y118.182 E199.06201
G1 X81.818 Y113.904 E199.61683
G1 X81.818 Y114.796 E199.69863
G1 X85.204 Y118.182 E200.13777
G1 X84.313 Y118.182 E200.21948
G1 X81.818 Y115.687 E200.54306
G1 X81.818 Y116.578 E200.62477
G1 X83.422 Y118.182 E200.8328
G1 X82.53 Y118.182 E200.9146
G1 X81.537 Y117.188 E201.04345
;LAYER_CHANGE
;Z:0.65
;HEIGHT:0.3
G1 Z.65 F7800
G1 E199.04345 F2400
G92 E0
G1 X81.537 Y117.188 Z.65 F7800
G1 X119.254 Y119.254
G1 E2 F2400
G92 E0
;TYPE:Perimeter
;WIDTH:0.45
G1 F3600
G1 X80.746 Y119.254 E1.8521
G1 X80.746 Y80.746 E3.7042
G1 X119.254 Y80.746 E5.5563
G1 X119.254 Y100 E6.48235
G1 X119.254 Y119.194 E7.40551
G1 X119.254 Y119.194 F7800
G1 X119.639 Y119.639
G1 F3600
G1 X80.361 Y119.639 E9.29465
G1 X80.361 Y80.361 E11.18379
G1 X119.639 Y80.361 E13.07293
G1 X119.639 Y100 E14.0175
G1 X119.639 Y119.579 E14.95918
G1 X119.639 Y119.579 F7800
G1 X120.025 Y120.025
;TYPE:External perimeter
G1 F1800
G1 X79.975 Y120.025 E16.88545
G1 X79.975 Y79.975 E18.81172
G1 X120.025 Y79.975 E20.73799
G1 X120.025 Y100 E21.70112
G1 X120.025 Y119.965 E22.66137
G1 X119.629 Y120.024 F7800
G1 E20.66137 F2400
G92 E0
G1 X81.14 Y81.067 F7800
G1 E2 F2400
;TYPE:Solid infill
;WIDTH:0.543559
G1 F1200
G1 X81.098 Y81.024 E2.00359
G1 X81.04 Y81.04 E2.00719
G1 X81.024 Y81.098 E2.01079
G1 X81.067 Y81.14 E2.01438
G1 X81.125 Y81.125 E2.01796
;WIDTH:0.45
G1 X81.035 Y81.741 E2.0479
G1 X81.741 Y81.035 E2.09592
G1 X82.286 Y81.035 E2.12213
G1 X81.035 Y82.286 E2.20722
G1 X81.035 Y82.831 E2.23343
G1 X82.831 Y81.035 E2.35559
G1 X83.377 Y81.035 E2.38185
G1 X81.035 Y83.377 E2.54115
G1 X81.035 Y83.922 E2.56736
G1 X83.922 Y81.035 E2.76373
G1 X84.467 Y81.035 E2.78994
G1 X81.035 Y84.467 E3.02338
G1 X81.035 Y85.013 E3.04964
G1 X85.013 Y81.035 E3.32022
G1 X85.558 Y81.035 E3.34643
G1 X81.035 Y85.558 E3.65408
G1 X81.035 Y86.103 E3.68029
G1 X86.103 Y81.035 E4.02501
G1 X86.649 Y81.035 E4.05127
G1 X81.035 Y86.649 E4.43313
G1 X81.035 Y87.194 E4.45934
G1 X87.194 Y81.035 E4.87827
G1 X87.739 Y81.035 E4.90448
G1 X81.035 Y87.739 E5.36048
G1 X81.035 Y88.285 E5.38674
G1 X88.285 Y81.035 E5.87988
G1 X88.83 Y81.035 E5.90609
G1 X81.035 Y88.83 E6.4363
G1 X81.035 Y89.375 E6.46251
G1 X89.375 Y81.035 E7.02979
G1 X89.921 Y81.035 E7.05605
G1 X81.035 Y89.921 E7.66046
G1 X81.035 Y90.466 E7.68667
G1 X90.466 Y81.035 E8.32815
G1 X91.011 Y81.035 E8.35436
G1 X81.035 Y91.011 E9.03292
G1 X81.035 Y91.557 E9.05918
G1 X91.557 Y81.035 E9.77487
G1 X92.102 Y81.035 E9.80108
G1 X81.035 Y92.102 E10.55384
G1 X81.035 Y92.647 E10.58005
G1 X92.647 Y81.035 E11.36988
G1 X93.193 Y81.035 E11.39614
G1 X81.035 Y93.193 E12.22311
G1 X81.035 Y93.738 E12.24932
G1 X93.738 Y81.035 E13.11336
G1 X94.284 Y81.035 E13.13962
G1 X81.035 Y94.284 E14.0408
G1 X81.035 Y94.829 E14.06701
G1 X94.829 Y81.035 E15.00526
G1 X95.374 Y81.035 E15.03147
G1 X81.035 Y95.374 E16.00679
G1 X81.035 Y95.92 E16.03305
G1 X95.92 Y81.035 E17.04551
G1 X96.465 Y81.035 E17.07172
G1 X81.035 Y96.465 E18.12125
G1 X81.035 Y97.01 E18.14746
G1 X97.01 Y81.035 E19.23406
G1 X97.556 Y81.035 E19.26032
G1 X81.035 Y97.556 E20.38406
G1 X81.035 Y98.101 E20.41027
G1 X98.101 Y81.035 E21.57108
G1 X98.646 Y81.035 E21.59729
G1 X81.035 Y98.646 E22.79517
G1 X81.035 Y99.192 E22.82143
G1 X99.192 Y81.035 E24.05645
G1 X99.737 Y81.035 E24.08266
G1 X81.035 Y99.737 E25.35475
G1 X81.035 Y100.282 E25.38096
G1 X100.282 Y81.035 E26.69012
G1 X100.828 Y81.035 E26.71638
G1 X81.035 Y100.828 E28.06268
G1 X81.035 Y101.373 E28.08889
G1 X101.373 Y81.035 E29.47226
G1 X101.918 Y81.035 E29.49847
G1 X81.035 Y101.918 E30.91891
G1 X81.035 Y102.464 E30.94517
G1 X102.464 Y81.035 E32.40274
G1 X103.009 Y81.035 E32.42895
G1 X81.035 Y103.009 E33.92359
G1 X81.035 Y103.554 E33.9498
G1 X103.554 Y81.035 E35.48151
G1 X104.1 Y81.035 E35.50777
G1 X81.035 Y104.1 E37.07662
G1 X81.035 Y104.645 E37.10283
G1 X104.645 Y81.035 E38.70875
G1 X105.19 Y81.035 E38.73496
G1 X81.035 Y105.19 E40.37795
G1 X81.035 Y105.736 E40.40421
G1 X105.736 Y81.035 E42.08434
G1 X106.281 Y81.035 E42.11055
G1 X81.035 Y106.281 E43.82775
G1 X81.035 Y106.827 E43.85401
G1 X106.827 Y81.035 E45.60835
G1 X107.372 Y81.035 E45.63456
G1 X81.035 Y107.372 E47.42597
G1 X81.035 Y107.917 E47.45218
G1 X107.917 Y81.035 E49.28066
G1 X108.463 Y81.035 E49.30692
G1 X81.035 Y108.463 E51.17254
G1 X81.035 Y109.008 E51.19875
G1 X109.008 Y81.035 E53.10144
G1 X109.553 Y81.035 E53.12765
G1 X81.035 Y109.553 E55.06741
G1 X81.035 Y110.099 E55.09367
G1 X110.099 Y81.035 E57.07057
G1 X110.644 Y81.035 E57.09678
G1 X81.035 Y110.644 E59.11075
G1 X81.035 Y111.189 E59.13696
G1 X111.189 Y81.035 E61.188
G1 X111.735 Y81.035 E61.21426
G1 X81.035 Y111.735 E63.30244
G1 X81.035 Y112.28 E63.32865
G1 X112.28 Y81.035 E65.4539
G1 X112.825 Y81.035 E65.48011
G1 X81.035 Y112.825 E67.64243
G1 X81.035 Y113.371 E67.66869
G1 X113.371 Y81.035 E69.86814
G1 X113.916 Y81.035 E69.89435
G1 X81.035 Y113.916 E72.13087
G1 X81.035 Y114.461 E72.15708
G1 X114.461 Y81.035 E74.43068
G1 X115.007 Y81.035 E74.45694
G1 X81.035 Y115.007 E76.76767
G1 X81.035 Y115.552 E76.79388
G1 X115.552 Y81.035 E79.14168
G1 X116.097 Y81.035 E79.16789
G1 X81.035 Y116.097 E81.55276
G1 X81.035 Y116.643 E81.57902
G1 X116.643 Y81.035 E84.00103
G1 X117.188 Y81.035 E84.02724
G1 X81.035 Y117.188 E86.48632
G1 X81.035 Y117.733 E86.51253
G1 X117.733 Y81.035 E89.00868
G1 X118.279 Y81.035 E89.03494
G1 X81.035 Y118.279 E91.56823
G1 X81.035 Y118.279 F7800
G1 X80.963 Y119.097
;WIDTH:0.404381
G1 F1200
G1 X80.922 Y119.108 E91.57003
G1 X80.903 Y119.037 E91.57315
G1 X80.974 Y119.056 E91.57627
;WIDTH:0.45
G1 X81.035 Y118.824 E91.58781
G1 X118.824 Y81.035 E94.15817
G1 X119.097 Y80.963 E94.17175
;WIDTH:0.404381
G1 X119.056 Y80.974 E94.17355
G1 X119.037 Y80.903 E94.17667
G1 X119.108 Y80.922 E94.17979
;WIDTH:0.45
G1 X118.965 Y81.44 E94.20564
G1 X81.44 Y118.965 E96.75804
G1 X81.986 Y118.965 E96.7843
G1 X118.965 Y81.986 E99.29957
G1 X118.965 Y82.531 E99.32578
G1 X82.531 Y118.965 E101.80398
G1 X83.076 Y118.965 E101.83019
G1 X118.965 Y83.076 E104.27132
G1 X118.965 Y83.622 E104.29758
G1 X83.622 Y118.965 E106.70157
G1 X84.167 Y118.965 E106.72778
G1 X118.965 Y84.167 E109.0947
G1 X118.965 Y84.713 E109.12096
G1 X84.713 Y118.965 E111.45074
G1 X85.258 Y118.965 E111.47695
G1 X118.965 Y85.258 E113.76966
G1 X118.965 Y85.803 E113.79587
G1 X85.803 Y118.965 E116.05151
G1 X86.349 Y118.965 E116.07777
G1 X118.965 Y86.349 E118.29627
G1 X118.965 Y86.894 E118.32248
G1 X86.894 Y118.965 E120.50391
G1 X87.439 Y118.965 E120.53012
G1 X118.965 Y87.439 E122.67448
G1 X118.965 Y87.985 E122.70074
G1 X87.985 Y118.965 E124.80796
G1 X88.53 Y118.965 E124.83417
G1 X118.965 Y88.53 E126.90432
G1 X118.965 Y89.075 E126.93053
G1 X89.075 Y118.965 E128.96361
G1 X89.621 Y118.965 E128.98987
G1 X118.965 Y89.621 E130.98581
G1 X118.965 Y90.166 E131.01202
G1 X90.166 Y118.965 E132.97089
G1 X90.711 Y118.965 E132.9971
G1 X118.965 Y90.711 E134.9189
G1 X118.965 Y91.257 E134.94516
G1 X91.257 Y118.965 E136.82982
G1 X91.802 Y118.965 E136.85603
G1 X118.965 Y91.802 E138.70362
G1 X118.965 Y92.347 E138.72983
G1 X92.347 Y118.965 E140.54035
G1 X92.893 Y118.965 E140.56661
G1 X118.965 Y92.893 E142.34
G1 X118.965 Y93.438 E142.36621
G1 X93.438 Y118.965 E144.10252
G1 X93.983 Y118.965 E144.12873
G1 X118.965 Y93.983 E145.82797
G1 X118.965 Y94.529 E145.85423
G1 X94.529 Y118.965 E147.51634
G1 X95.074 Y118.965 E147.54255
G1 X118.965 Y95.074 E149.16759
G1 X118.965 Y95.619 E149.1938
G1 X95.619 Y118.965 E150.78177
G1 X96.165 Y118.965 E150.80803
G1 X118.965 Y96.165 E152.35886
G1 X118.965 Y96.71 E152.38507
G1 X96.71 Y118.965 E153.89883
G1 X97.256 Y118.965 E153.92509
G1 X118.965 Y97.256 E155.40171
G1 X118.965 Y97.801 E155.42792
G1 X97.801 Y118.965 E156.86747
G1 X98.346 Y118.965 E156.89368
G1 X118.965 Y98.346 E158.29616
G1 X118.965 Y98.892 E158.32242
G1 X98.892 Y118.965 E159.68776
G1 X99.437 Y118.965 E159.71397
G1 X118.965 Y99.437 E161.04224
G1 X118.965 Y99.982 E161.06845
G1 X99.982 Y118.965 E162.35965
G1 X100.528 Y118.965 E162.38591
G1 X118.965 Y100.528 E163.63997
G1 X118.965 Y101.073 E163.66618
G1 X101.073 Y118.965 E164.88317
G1 X101.618 Y118.965 E164.90938
G1 X118.965 Y101.618 E166.0893
G1 X118.965 Y102.164 E166.11556
G1 X102.164 Y118.965 E167.25834
G1 X102.709 Y118.965 E167.28455
G1 X118.965 Y102.709 E168.39026
G1 X118.965 Y103.254 E168.41647
G1 X103.254 Y118.965 E169.48511
G1 X103.8 Y118.965 E169.51137
G1 X118.965 Y103.8 E170.54287
G1 X118.965 Y104.345 E170.56908
G1 X104.345 Y118.965 E171.56351
G1 X104.89 Y118.965 E171.58972
G1 X118.965 Y104.89 E172.54708
G1 X118.965 Y105.436 E172.57334
G1 X105.436 Y118.965 E173.49357
G1 X105.981 Y118.965 E173.51978
G1 X118.965 Y105.981 E174.40294
G1 X118.965 Y106.526 E174.42915
G1 X106.526 Y118.965 E175.27524
G1 X107.072 Y118.965 E175.3015
G1 X118.965 Y107.072 E176.11045
G1 X118.965 Y107.617 E176.13666
G1 X107.617 Y118.965 E176.90854
G1 X108.162 Y118.965 E176.93475
G1 X118.965 Y108.162 E177.66956
G1 X118.965 Y108.708 E177.69582
G1 X108.708 Y118.965 E178.39349
G1 X109.253 Y118.965 E178.4197
G1 X118.965 Y109.253 E179.0803
G1 X118.965 Y109.799 E179.10656
G1 X109.798 Y118.965 E179.73005
G1 X110.344 Y118.965 E179.75631
G1 X118.965 Y110.344 E180.3427
G1 X118.965 Y110.889 E180.36891
G1 X110.889 Y118.965 E180.91823
G1 X111.435 Y118.965 E180.94449
G1 X118.965 Y111.435 E181.45667
G1 X118.965 Y111.98 E181.48288
G1 X111.98 Y118.965 E181.95799
G1 X112.525 Y118.965 E181.9842
